( pcb2gcode 1.1.4 )

G94     ( Inches per minute feed rate. )
G20     ( Units == INCHES.             )
S30000  ( RPM spindle speed.           )
M3      ( Spindle on clockwise.        )

G64 P0.00125 ( set maximum deviation from commanded toolpath )

G00 Z0.039370
 X0.020650 Y-0.022400
F3.937008
G01 Z-0.003937
 Y-0.818400
 X0.022400 Y-0.819150
 X0.033150
 X0.607150 Y-0.246150
 X0.614650 Y-0.240400
 X0.625900 Y-0.235900
 X0.627400
 Y-0.235650
 X0.629400
 Y-0.235400
 X0.631400
 Y-0.235150
 X0.633400
 Y-0.234900
 X0.966150
 Y-0.235150
 X0.968400
 Y-0.235400
 X0.971400
 Y-0.235650
 X0.973900
 X0.982900 Y-0.238900
 X0.992150 Y-0.245150
 X1.073650 Y-0.326650
 X1.080650 Y-0.336400
 X1.083900 Y-0.345400
 Y-0.346900
 X1.084150
 Y-0.348900
 X1.084400
 Y-0.350900
 X1.084650
 Y-0.352900
 X1.084900
 Y-0.546650
 X1.203150 Y-0.664900
 X1.327900
 X1.338900 Y-0.658650
 X1.341400 Y-0.654900
 Y-0.644150
 X1.338900 Y-0.640400
 X1.325150 Y-0.631650
 X1.318400 Y-0.623650
 X1.310650 Y-0.604900
 Y-0.602650
 X1.310400
 Y-0.600400
 X1.310150
 Y-0.598150
 X1.310400
 Y-0.595400
 X1.310650
 Y-0.594150
 X1.317400 Y-0.577650
 X1.324650 Y-0.568400
 X1.339150 Y-0.558400
 X1.350400 Y-0.554650
 X1.352400
 Y-0.554400
 X1.354650
 Y-0.554150
 X1.356650
 Y-0.553900
 X1.358900
 Y-0.553650
 X1.380900
 Y-0.553900
 X1.383650
 Y-0.554150
 X1.386400
 Y-0.554400
 X1.389150
 Y-0.554650
 X1.390400
 X1.407400 Y-0.561650
 X1.416400 Y-0.568900
 X1.424900 Y-0.581150
 X1.429650 Y-0.594400
 Y-0.596650
 X1.429900
 Y-0.598900
 X1.430150
 Y-0.601150
 X1.429900
 Y-0.603900
 X1.421400 Y-0.623900
 X1.415400 Y-0.631150
 X1.401400 Y-0.640650
 X1.398900 Y-0.644400
 Y-0.655150
 X1.401400 Y-0.658900
 X1.415150 Y-0.667650
 X1.421900 Y-0.675650
 X1.429650 Y-0.694400
 Y-0.696650
 X1.429900
 Y-0.698900
 X1.430150
 Y-0.701150
 X1.429900
 Y-0.703900
 X1.421400 Y-0.723900
 X1.415400 Y-0.731150
 X1.401400 Y-0.740650
 X1.398900 Y-0.744400
 Y-0.755150
 X1.401400 Y-0.758900
 X1.415150 Y-0.767650
 X1.421900 Y-0.775650
 X1.429650 Y-0.794400
 Y-0.796650
 X1.429900
 Y-0.798900
 X1.430150
 Y-0.801150
 X1.429900
 Y-0.803900
 X1.421400 Y-0.823900
 X1.415400 Y-0.831150
 X1.401400 Y-0.840650
 X1.398900 Y-0.844400
 Y-0.855150
 X1.401400 Y-0.858900
 X1.415150 Y-0.867650
 X1.421900 Y-0.875650
 X1.429650 Y-0.894400
 Y-0.896650
 X1.429900
 Y-0.898900
 X1.430150
 Y-0.901150
 X1.429900
 Y-0.903900
 X1.421400 Y-0.923900
 X1.415400 Y-0.931150
 X1.401400 Y-0.940650
 X1.398900 Y-0.944400
 Y-0.955150
 X1.401400 Y-0.958900
 X1.415150 Y-0.967650
 X1.421900 Y-0.975650
 X1.429650 Y-0.994400
 Y-0.996650
 X1.429900
 Y-0.998900
 X1.430150
 Y-1.001150
 X1.429900
 Y-1.003900
 X1.421400 Y-1.023900
 X1.415400 Y-1.031150
 X1.401400 Y-1.040650
 X1.398900 Y-1.044400
 Y-1.055150
 X1.401400 Y-1.058900
 X1.415150 Y-1.067650
 X1.421900 Y-1.075650
 X1.429650 Y-1.094400
 Y-1.096650
 X1.429900
 Y-1.098900
 X1.430150
 Y-1.101150
 X1.429900
 Y-1.103900
 X1.421400 Y-1.123900
 X1.415400 Y-1.131150
 X1.401900 Y-1.140400
 X1.399400 Y-1.144150
 Y-1.154900
 X1.419150 Y-1.171650
 X1.417150 Y-1.175650
 X1.412400
 X1.406150 Y-1.169400
 X1.394900 Y-1.164650
 X1.392400
 Y-1.164400
 X1.389900
 Y-1.164150
 X1.350150
 Y-1.164400
 X1.347650
 Y-1.164650
 X1.345150
 X1.335650 Y-1.168400
 X1.329650 Y-1.172900
 X1.322150 Y-1.185150
 X1.314150
 X1.321150 Y-1.171650
 X1.340900 Y-1.154900
 Y-1.144150
 X1.338400 Y-1.140400
 X1.325150 Y-1.131650
 X1.318400 Y-1.123650
 X1.310650 Y-1.104900
 Y-1.101900
 X1.310400
 Y-1.100400
 X1.310150
 Y-1.098150
 X1.310400
 Y-1.096650
 X1.310650
 Y-1.094150
 X1.318900 Y-1.075400
 X1.324650 Y-1.068400
 X1.338900 Y-1.058650
 X1.341400 Y-1.054900
 Y-1.044150
 X1.338900 Y-1.040400
 X1.325150 Y-1.031650
 X1.318400 Y-1.023650
 X1.310650 Y-1.004900
 Y-1.002650
 X1.310400
 Y-1.000400
 X1.310150
 Y-0.998150
 X1.310400
 Y-0.995400
 X1.318900 Y-0.975400
 X1.324650 Y-0.968400
 X1.338900 Y-0.958650
 X1.341400 Y-0.954900
 Y-0.944150
 X1.338900 Y-0.940400
 X1.325150 Y-0.931650
 X1.318400 Y-0.923650
 X1.310650 Y-0.904900
 Y-0.901900
 X1.310400
 Y-0.900400
 X1.310150
 Y-0.898150
 X1.310400
 Y-0.896650
 X1.310650
 Y-0.894150
 X1.318900 Y-0.875400
 X1.324650 Y-0.868400
 X1.338900 Y-0.858650
 X1.341400 Y-0.854900
 Y-0.844150
 X1.338900 Y-0.840400
 X1.325150 Y-0.831650
 X1.318400 Y-0.823650
 X1.310650 Y-0.804900
 Y-0.802650
 X1.310400
 Y-0.800400
 X1.310150
 Y-0.798150
 X1.310400
 Y-0.795400
 X1.318900 Y-0.775400
 X1.324650 Y-0.768400
 X1.338900 Y-0.758650
 X1.341400 Y-0.754900
 Y-0.744150
 X1.338900 Y-0.740400
 X1.327900 Y-0.734400
 X1.193900
 Y-0.734150
 X1.191900
 Y-0.733900
 X1.188900
 Y-0.733650
 X1.186400
 X1.173650 Y-0.728400
 X1.167650 Y-0.723650
 X1.026150 Y-0.582150
 X1.020900 Y-0.575150
 X1.016400 Y-0.563900
 Y-0.562650
 X1.016150
 Y-0.560400
 X1.015900
 Y-0.558400
 X1.015650
 Y-0.556400
 X1.015400
 Y-0.362650
 X0.957150 Y-0.304400
 X0.783400
 X0.779150 Y-0.308650
 Y-0.319400
 X0.786650 Y-0.327650
 X0.790150 Y-0.336650
 Y-0.339150
 X0.790400
 Y-0.341900
 X0.790150
 Y-0.371900
 X0.863150 Y-0.444900
 X0.899400
 X0.916150 Y-0.432150
 X0.930150 Y-0.426900
 X0.931400
 X0.932400 Y-0.426400
 X0.933650
 X0.938150 Y-0.425150
 X0.941400
 Y-0.425400
 X0.942650
 X0.943900 Y-0.425900
 X0.945150
 X0.946400 Y-0.426400
 X0.947650
 X0.948900 Y-0.426900
 X0.950150
 X0.963400 Y-0.431650
 X0.981400 Y-0.446400
 X0.990900 Y-0.463150
 X0.994400 Y-0.477150
 Y-0.482150
 X0.993900 Y-0.483400
 Y-0.484900
 X0.993400 Y-0.485900
 Y-0.487650
 X0.992900 Y-0.488900
 Y-0.490400
 X0.988400 Y-0.502400
 X0.981400 Y-0.512650
 X0.973900 Y-0.520650
 X0.957150 Y-0.530150
 X0.954900 Y-0.533650
 Y-0.633900
 X0.967400 Y-0.650150
 X0.972400 Y-0.662150
 Y-0.663400
 X0.972900 Y-0.664650
 Y-0.665900
 X0.973400 Y-0.667150
 Y-0.668400
 X0.973900 Y-0.669650
 Y-0.670900
 X0.974400 Y-0.672150
 Y-0.677150
 X0.974150
 Y-0.678400
 X0.973900
 Y-0.679900
 X0.973400 Y-0.681150
 Y-0.682650
 X0.972900 Y-0.683900
 Y-0.685400
 X0.972650
 Y-0.686650
 X0.968400 Y-0.697400
 X0.954900 Y-0.715650
 Y-0.842900
 X0.959150 Y-0.847150
 X0.969900
 X0.981900 Y-0.837400
 X1.000400 Y-0.829650
 X1.002400
 Y-0.829400
 X1.004650
 Y-0.829150
 X1.006650
 Y-0.828900
 X1.008900
 Y-0.828650
 X1.030900
 Y-0.828900
 X1.033650
 Y-0.829150
 X1.036400
 Y-0.829400
 X1.039150
 Y-0.829650
 X1.040400
 X1.057400 Y-0.836650
 X1.066400 Y-0.843900
 X1.074900 Y-0.856150
 X1.079650 Y-0.869400
 Y-0.871650
 X1.079900
 Y-0.873900
 X1.080150
 Y-0.876150
 X1.079900
 Y-0.877900
 X1.079650
 Y-0.880150
 X1.071400 Y-0.898900
 X1.065400 Y-0.906150
 X1.051400 Y-0.915650
 X1.048900 Y-0.919400
 Y-0.930150
 X1.051400 Y-0.933900
 X1.065150 Y-0.942650
 X1.071900 Y-0.950650
 X1.079650 Y-0.969400
 Y-0.971650
 X1.079900
 Y-0.973900
 X1.080150
 Y-0.976150
 X1.079900
 Y-0.978900
 X1.079650
 Y-0.980150
 X1.071400 Y-0.998900
 X1.065400 Y-1.006150
 X1.051400 Y-1.015650
 X1.048900 Y-1.019400
 Y-1.030150
 X1.074150 Y-1.051650
 X1.120650
 Y-1.051900
 X1.122150
 Y-1.052150
 X1.125900
 X1.135400 Y-1.055900
 X1.140650 Y-1.060150
 X1.299400 Y-1.217900
 X1.310150
 X1.314150 Y-1.214400
 X1.322150
 X1.329650 Y-1.226650
 X1.345150 Y-1.234900
 X1.347650
 Y-1.235150
 X1.350150
 Y-1.235400
 X1.389900
 Y-1.235150
 X1.392400
 Y-1.234900
 X1.394900
 X1.406150 Y-1.230150
 X1.412150 Y-1.224150
 X1.430400
 X1.432650 Y-1.225400
 X1.443400
 X1.527150 Y-1.141650
 Y-1.074150
 X1.527400
 Y-1.072650
 X1.527650
 Y-1.069150
 X1.531900 Y-1.058650
 X1.535650 Y-1.054150
 X1.605150 Y-0.984650
 X1.617900 Y-0.976900
 X1.624650 Y-0.968400
 X1.638900 Y-0.958650
 X1.641400 Y-0.954900
 Y-0.944150
 X1.638900 Y-0.940400
 X1.625150 Y-0.931650
 X1.618400 Y-0.923650
 X1.610650 Y-0.904900
 Y-0.901900
 X1.610400
 Y-0.900400
 X1.610150
 Y-0.898150
 X1.610400
 Y-0.896650
 X1.610650
 Y-0.894150
 X1.618900 Y-0.875400
 X1.624650 Y-0.868400
 X1.638900 Y-0.858650
 X1.641400 Y-0.854900
 Y-0.844150
 X1.638900 Y-0.840400
 X1.625150 Y-0.831650
 X1.618400 Y-0.823650
 X1.610650 Y-0.804900
 Y-0.802650
 X1.610400
 Y-0.800400
 X1.610150
 Y-0.798150
 X1.610400
 Y-0.795400
 X1.618900 Y-0.775400
 X1.624650 Y-0.768400
 X1.638900 Y-0.758650
 X1.641400 Y-0.754900
 Y-0.744150
 X1.638900 Y-0.740400
 X1.625150 Y-0.731650
 X1.618400 Y-0.723650
 X1.610650 Y-0.704900
 Y-0.701900
 X1.610400
 Y-0.700400
 X1.610150
 Y-0.698150
 X1.610400
 Y-0.696650
 X1.610650
 Y-0.694150
 X1.618150 Y-0.676400
 X1.632150 Y-0.660650
 Y-0.649900
 X1.628150 Y-0.645650
 X1.626900
 Y-0.645400
 X1.625400
 Y-0.645150
 X1.623900
 X1.614150 Y-0.638400
 X1.610400 Y-0.629900
 Y-0.628650
 X1.610150
 Y-0.570900
 X1.610650 Y-0.569650
 Y-0.568400
 X1.615150 Y-0.559900
 X1.625400 Y-0.551150
 Y-0.413650
 X1.606400 Y-0.394400
 X1.414150
 X1.400150 Y-0.408150
 X1.389900 Y-0.415400
 X1.374150 Y-0.421650
 X1.372900
 X1.370900 Y-0.422400
 X1.369650
 X1.366650 Y-0.423400
 X1.365400
 X1.364400 Y-0.423900
 X1.357900
 Y-0.423650
 X1.356650
 X1.355400 Y-0.423150
 X1.344400
 X1.294650 Y-0.473150
 Y-0.480650
 X1.294400
 Y-0.482150
 X1.293900 Y-0.483400
 Y-0.484900
 X1.293400 Y-0.485900
 Y-0.487650
 X1.292900 Y-0.488900
 Y-0.490400
 X1.288400 Y-0.502400
 X1.282400 Y-0.511400
 X1.273900 Y-0.520650
 X1.266400 Y-0.525650
 X1.214150
 X1.199650 Y-0.513650
 X1.193400 Y-0.504900
 X1.187900 Y-0.492150
 Y-0.490900
 X1.185900 Y-0.483150
 Y-0.476900
 X1.192400 Y-0.456150
 X1.205400 Y-0.438900
 Y-0.404400
 X1.196400 Y-0.391150
 X1.190150 Y-0.372650
 Y-0.368150
 X1.195900 Y-0.349150
 X1.201900 Y-0.339900
 X1.218150 Y-0.326150
 X1.229400 Y-0.321650
 X1.230650
 X1.231650 Y-0.321150
 X1.232900
 X1.233900 Y-0.320650
 X1.235150
 X1.237400 Y-0.319900
 X1.238650
 Y-0.319650
 X1.241150
 Y-0.319900
 X1.242650
 Y-0.320150
 X1.244150
 Y-0.320400
 X1.245400
 Y-0.320650
 X1.246900
 Y-0.320900
 X1.248400
 Y-0.321150
 X1.249900
 X1.261400 Y-0.325650
 X1.269650 Y-0.331150
 X1.284400 Y-0.346150
 X1.295150
 X1.298650 Y-0.343900
 X1.303650 Y-0.331400
 X1.310650 Y-0.320900
 X1.321150 Y-0.310400
 X1.331400 Y-0.303400
 X1.345150 Y-0.297900
 X1.346400
 Y-0.297650
 X1.347650
 X1.349900 Y-0.296900
 X1.351150
 Y-0.296650
 X1.352400
 X1.354650 Y-0.295900
 X1.355900
 Y-0.295650
 X1.357150
 Y-0.295400
 X1.362650
 Y-0.295650
 X1.363900
 Y-0.295900
 X1.365150
 X1.366400 Y-0.296400
 X1.367650
 Y-0.296650
 X1.368900
 Y-0.296900
 X1.370150
 X1.371400 Y-0.297400
 X1.372650
 Y-0.297650
 X1.373900
 Y-0.297900
 X1.375150
 X1.387900 Y-0.302900
 X1.398650 Y-0.309900
 X1.413900 Y-0.324900
 X1.606400
 X1.622900 Y-0.309150
 X1.631400 Y-0.303400
 X1.645150 Y-0.297900
 X1.646400
 X1.648650 Y-0.297150
 X1.649900
 Y-0.296900
 X1.651150
 X1.653400 Y-0.296150
 X1.654650
 X1.655900 Y-0.295650
 X1.657150
 Y-0.295400
 X1.662650
 X1.663900 Y-0.295900
 X1.665150
 Y-0.296150
 X1.666400
 Y-0.296400
 X1.667650
 X1.668900 Y-0.296900
 X1.670150
 Y-0.297150
 X1.671400
 Y-0.297400
 X1.672650
 X1.673900 Y-0.297900
 X1.675150
 X1.687900 Y-0.302900
 X1.697900 Y-0.309400
 X1.708900 Y-0.320150
 X1.720150 Y-0.339650
 X1.724400 Y-0.356150
 Y-0.361650
 X1.724150
 Y-0.363150
 X1.723650 Y-0.364400
 Y-0.365900
 X1.723400
 Y-0.367150
 X1.723150
 Y-0.368650
 X1.722900
 Y-0.370150
 X1.722400 Y-0.371400
 Y-0.372900
 X1.717150 Y-0.386900
 X1.710150 Y-0.397650
 X1.694900 Y-0.413400
 Y-0.549400
 X1.699150 Y-0.553650
 X1.712900
 Y-0.553900
 X1.714150
 Y-0.554150
 X1.715400
 X1.726150 Y-0.560900
 X1.729900 Y-0.569400
 Y-0.570650
 X1.730150
 Y-0.573150
 X1.730400
 Y-0.581900
 X1.730150
 Y-0.628900
 X1.729900
 Y-0.630400
 X1.729650
 Y-0.631900
 X1.722900 Y-0.641650
 X1.714650 Y-0.645400
 X1.713400
 X1.708400 Y-0.649900
 Y-0.660650
 X1.712650 Y-0.664900
 X1.829400
 X1.846150 Y-0.652150
 X1.857900 Y-0.647400
 X1.859150
 X1.862400 Y-0.646400
 X1.863650
 X1.864650 Y-0.645900
 X1.865900
 X1.868150 Y-0.645150
 X1.871400
 Y-0.645400
 X1.872650
 Y-0.645650
 X1.873900
 Y-0.645900
 X1.875150
 X1.876400 Y-0.646400
 X1.877650
 Y-0.646650
 X1.878900
 Y-0.646900
 X1.880150
 Y-0.647150
 X1.881400
 X1.893400 Y-0.651650
 X1.905150 Y-0.660150
 X1.917400 Y-0.675150
 X1.922400 Y-0.687150
 Y-0.688400
 X1.922900 Y-0.689650
 Y-0.690900
 X1.923400 Y-0.692150
 Y-0.693400
 X1.923650
 Y-0.694650
 X1.924150 Y-0.695900
 Y-0.697150
 X1.924400
 Y-0.702150
 X1.923900 Y-0.703400
 Y-0.704900
 X1.923400 Y-0.706150
 Y-0.707650
 X1.923150
 Y-0.708900
 X1.922900
 Y-0.710400
 X1.918400 Y-0.722400
 X1.912400 Y-0.731400
 X1.892900 Y-0.749900
 Y-0.760650
 X1.897150 Y-0.764900
 X1.927150
 X1.968900 Y-0.724650
 X1.978400 Y-0.707150
 X1.987150 Y-0.698150
 X2.007900 Y-0.687400
 X2.009150
 X2.010150 Y-0.686900
 X2.011400
 X2.014650 Y-0.685900
 X2.015900
 X2.016900 Y-0.685400
 X2.018150
 Y-0.685150
 X2.021400
 Y-0.685400
 X2.022650
 Y-0.685650
 X2.023900
 Y-0.685900
 X2.025150
 Y-0.686150
 X2.026400
 Y-0.686400
 X2.027650
 Y-0.686650
 X2.028900
 X2.030150 Y-0.687150
 X2.031400
 X2.043400 Y-0.691650
 X2.055150 Y-0.700150
 X2.067400 Y-0.715150
 X2.072400 Y-0.727150
 Y-0.728400
 X2.072900 Y-0.729650
 Y-0.730900
 X2.073400 Y-0.732150
 Y-0.733400
 X2.073900 Y-0.734650
 Y-0.735900
 X2.074400 Y-0.737150
 Y-0.742150
 X2.074150
 Y-0.743400
 X2.073900
 Y-0.744900
 X2.073400 Y-0.746150
 Y-0.747650
 X2.072900 Y-0.748900
 Y-0.750400
 X2.072650
 Y-0.751650
 X2.068400 Y-0.762400
 X2.053900 Y-0.780650
 X2.031900 Y-0.792150
 X2.030650
 Y-0.792400
 X2.029400
 Y-0.792650
 X2.028150
 Y-0.792900
 X2.026900
 Y-0.793150
 X2.025650
 Y-0.793400
 X2.024400
 Y-0.793650
 X2.023150
 Y-0.793900
 X2.018150
 Y-0.793650
 X2.016900
 Y-0.793400
 X2.015400
 Y-0.793150
 X2.014150
 Y-0.792900
 X2.012650
 Y-0.792650
 X2.011400
 Y-0.792400
 X2.009900
 Y-0.792150
 X2.008650
 X2.008150 Y-0.791650
 X2.006900
 Y-0.791400
 X1.996150
 X1.977650 Y-0.809900
 Y-0.820650
 X1.981900 Y-0.824900
 X2.067150
 X2.257150 Y-0.636150
 X2.264650 Y-0.630400
 X2.275900 Y-0.625900
 X2.277400
 Y-0.625650
 X2.279400
 Y-0.625400
 X2.281400
 Y-0.625150
 X2.283400
 Y-0.624900
 X2.399400
 X2.416150 Y-0.612150
 X2.427900 Y-0.607400
 X2.429150
 X2.430150 Y-0.606900
 X2.431400
 X2.432400 Y-0.606400
 X2.433650
 X2.434650 Y-0.605900
 X2.435900
 X2.436900 Y-0.605400
 X2.438150
 Y-0.605150
 X2.441400
 Y-0.605400
 X2.442650
 Y-0.605650
 X2.443900
 Y-0.605900
 X2.445150
 Y-0.606150
 X2.446400
 X2.447650 Y-0.606650
 X2.448900
 Y-0.606900
 X2.450150
 Y-0.607150
 X2.451400
 X2.463400 Y-0.611650
 X2.484650 Y-0.628900
 X2.495400
 X2.516150 Y-0.612150
 X2.527900 Y-0.607400
 X2.529150
 X2.530150 Y-0.606900
 X2.531400
 X2.532400 Y-0.606400
 X2.533650
 X2.534650 Y-0.605900
 X2.535900
 X2.536900 Y-0.605400
 X2.538150
 Y-0.605150
 X2.541400
 Y-0.605400
 X2.542650
 Y-0.605650
 X2.543900
 Y-0.605900
 X2.545150
 Y-0.606150
 X2.546400
 Y-0.606400
 X2.547650
 Y-0.606650
 X2.548900
 Y-0.606900
 X2.550150
 X2.563400 Y-0.611650
 X2.584650 Y-0.628900
 X2.595400
 X2.616150 Y-0.612150
 X2.627900 Y-0.607400
 X2.629150
 X2.630150 Y-0.606900
 X2.631400
 X2.632400 Y-0.606400
 X2.633650
 X2.634650 Y-0.605900
 X2.635900
 X2.636900 Y-0.605400
 X2.638150
 Y-0.605150
 X2.641400
 Y-0.605400
 X2.642650
 Y-0.605650
 X2.643900
 X2.645150 Y-0.606150
 X2.646400
 Y-0.606400
 X2.647650
 Y-0.606650
 X2.648900
 Y-0.606900
 X2.650150
 Y-0.607150
 X2.651400
 X2.663400 Y-0.611650
 X2.675150 Y-0.620150
 X2.687400 Y-0.635150
 X2.692650 Y-0.648400
 Y-0.649650
 X2.693150 Y-0.650900
 Y-0.652150
 X2.693650 Y-0.653400
 Y-0.654650
 X2.694150 Y-0.655900
 Y-0.657150
 X2.694400
 Y-0.662400
 X2.694650
 Y-0.668150
 X2.698900 Y-0.672400
 X2.709650
 X2.715400 Y-0.666650
 Y-0.622650
 X2.657150 Y-0.564400
 X2.293900
 Y-0.564150
 X2.291900
 Y-0.563900
 X2.288900
 Y-0.563650
 X2.286400
 X2.273650 Y-0.558400
 X2.267650 Y-0.553650
 X2.166150 Y-0.452150
 X2.160900 Y-0.445150
 X2.156150 Y-0.432650
 Y-0.430400
 X2.155900
 Y-0.428400
 X2.155650
 Y-0.426400
 X2.155400
 Y-0.218400
 X2.151150 Y-0.214150
 X2.142900
 Y-0.213900
 X2.141650
 X2.129900 Y-0.208150
 X2.119150
 X2.114900 Y-0.212400
 Y-0.225900
 X2.114650
 Y-0.227900
 X2.114400
 Y-0.230900
 X2.114150
 Y-0.233400
 X2.105900 Y-0.250150
 X2.065900 Y-0.291650
 Y-0.302400
 X2.072150 Y-0.316150
 X2.074400 Y-0.327150
 Y-0.332150
 X2.073900 Y-0.333400
 Y-0.334900
 X2.073400 Y-0.336150
 Y-0.337650
 X2.072900 Y-0.338900
 Y-0.340400
 X2.072650
 Y-0.341650
 X2.068400 Y-0.352400
 X2.054900 Y-0.370650
 Y-0.398900
 X2.067400 Y-0.415150
 X2.072650 Y-0.428400
 Y-0.429650
 X2.074400 Y-0.437150
 Y-0.442150
 X2.073900 Y-0.443400
 Y-0.444900
 X2.073400 Y-0.445900
 Y-0.447650
 X2.072900 Y-0.448900
 Y-0.450400
 X2.068400 Y-0.462400
 X2.055900 Y-0.478650
 X2.044900 Y-0.486650
 X2.031900 Y-0.492150
 X2.030650
 Y-0.492400
 X2.029400
 Y-0.492650
 X2.028150
 Y-0.492900
 X2.026900
 Y-0.493150
 X2.025650
 Y-0.493400
 X2.024400
 Y-0.493650
 X2.023150
 Y-0.493900
 X2.018150
 Y-0.493650
 X2.016900
 Y-0.493400
 X2.015400
 Y-0.493150
 X2.014150
 Y-0.492900
 X2.012650
 Y-0.492650
 X2.011400
 Y-0.492400
 X2.009900
 Y-0.492150
 X2.008650
 X1.989900 Y-0.483150
 X1.979650 Y-0.473650
 X1.969650 Y-0.456900
 X1.965900 Y-0.443150
 Y-0.436900
 X1.972400 Y-0.416150
 X1.985400 Y-0.398900
 Y-0.370650
 X1.973400 Y-0.354900
 X1.965900 Y-0.333150
 Y-0.326900
 X1.966900 Y-0.323150
 Y-0.321900
 X1.972400 Y-0.306150
 X1.986150 Y-0.288150
 Y-0.285900
 X1.989400 Y-0.276900
 X1.996150 Y-0.267150
 X2.045400 Y-0.216650
 Y-0.200650
 X2.035650 Y-0.190400
 X2.024900
 X2.014400 Y-0.200900
 Y-0.202400
 X2.010900 Y-0.212400
 X2.004650 Y-0.221650
 X1.904900 Y-0.322650
 Y-0.358900
 X1.917400 Y-0.375150
 X1.924400 Y-0.397150
 Y-0.402150
 X1.923900 Y-0.403400
 Y-0.404900
 X1.923400 Y-0.405900
 Y-0.407650
 X1.922900 Y-0.408900
 Y-0.410400
 X1.918400 Y-0.422400
 X1.905900 Y-0.438650
 X1.894900 Y-0.446650
 X1.883150 Y-0.451900
 X1.881900
 Y-0.452150
 X1.880650
 Y-0.452400
 X1.879400
 X1.878150 Y-0.452900
 X1.876900
 Y-0.453150
 X1.875650
 Y-0.453400
 X1.874400
 X1.873150 Y-0.453900
 X1.868150
 X1.866900 Y-0.453400
 X1.865400
 Y-0.453150
 X1.864150
 Y-0.452900
 X1.862650
 Y-0.452650
 X1.861400
 Y-0.452400
 X1.859900
 X1.847150 Y-0.447650
 X1.831900 Y-0.435900
 X1.823400 Y-0.424900
 X1.817400 Y-0.409900
 Y-0.408650
 X1.815900 Y-0.403150
 Y-0.396900
 X1.822400 Y-0.376150
 X1.835400 Y-0.358900
 Y-0.313650
 X1.835650
 Y-0.311400
 X1.835900
 Y-0.308400
 X1.836150
 Y-0.306150
 X1.839400 Y-0.296900
 X1.846150 Y-0.287150
 X1.904400 Y-0.227900
 Y-0.217150
 X1.900150 Y-0.212900
 X1.889400
 Y-0.213150
 X1.887900
 X1.885900 Y-0.213900
 X1.883650
 Y-0.214150
 X1.878400
 Y-0.213900
 X1.876650
 Y-0.213650
 X1.874900
 Y-0.213400
 X1.872900
 Y-0.213150
 X1.871150
 X1.856150 Y-0.207400
 X1.861650 Y-0.201400
 X1.867900 Y-0.203150
 X1.869400
 Y-0.203400
 X1.871150
 Y-0.203650
 X1.888900
 Y-0.203400
 X1.890650
 Y-0.203150
 X1.892150
 Y-0.202900
 X1.893400
 X1.905900 Y-0.197650
 X1.913400 Y-0.191400
 X1.919650 Y-0.182400
 X1.923400 Y-0.171900
 Y-0.170400
 X1.923650
 Y-0.168650
 X1.923900
 Y-0.150900
 X1.923650
 Y-0.149150
 X1.923400
 Y-0.147650
 X1.921650 Y-0.141650
 X1.930650 Y-0.132650
 X1.932900
 X1.947150 Y-0.118150
 X1.967900 Y-0.107400
 X1.969150
 X1.970150 Y-0.106900
 X1.971400
 X1.972400 Y-0.106400
 X1.973650
 X1.974650 Y-0.105900
 X1.975900
 X1.978150 Y-0.105150
 X1.981400
 Y-0.105400
 X1.982650
 Y-0.105650
 X1.983900
 Y-0.105900
 X1.985150
 X1.986400 Y-0.106400
 X1.987650
 Y-0.106650
 X1.988900
 Y-0.106900
 X1.990150
 X2.003400 Y-0.111650
 X2.024650 Y-0.128900
 X2.035400
 X2.056150 Y-0.112150
 X2.067900 Y-0.107400
 X2.069150
 X2.070150 Y-0.106900
 X2.071400
 X2.072400 Y-0.106400
 X2.073650
 X2.074650 Y-0.105900
 X2.075900
 X2.076900 Y-0.105400
 X2.078150
 Y-0.105150
 X2.081400
 X2.082650 Y-0.105650
 X2.083900
 Y-0.105900
 X2.085150
 Y-0.106150
 X2.086400
 Y-0.106400
 X2.087650
 Y-0.106650
 X2.088900
 Y-0.106900
 X2.090150
 Y-0.107150
 X2.091400
 X2.102900 Y-0.111400
 X2.113650 Y-0.118150
 X2.124400
 X2.133150 Y-0.109400
 X2.141650 Y-0.105400
 X2.142900
 Y-0.105150
 X2.217400
 Y-0.105400
 X2.218650
 Y-0.105650
 X2.219900
 X2.229400 Y-0.111400
 X2.234650 Y-0.122400
 Y-0.196900
 X2.234150 Y-0.197900
 Y-0.199400
 X2.224900 Y-0.213400
 Y-0.416650
 X2.303150 Y-0.494900
 X2.666150
 Y-0.495150
 X2.668400
 Y-0.495400
 X2.671400
 Y-0.495650
 X2.673900
 X2.682900 Y-0.498900
 X2.692150 Y-0.505150
 X2.773650 Y-0.586650
 X2.780650 Y-0.596400
 X2.783900 Y-0.605400
 Y-0.606900
 X2.784150
 Y-0.608900
 X2.784400
 Y-0.610900
 X2.784650
 Y-0.612900
 X2.784900
 Y-0.675900
 X2.784650
 Y-0.677900
 X2.784400
 Y-0.680900
 X2.784150
 Y-0.683400
 X2.778650 Y-0.696650
 X2.774650 Y-0.701650
 X2.660150 Y-0.817150
 Y-0.827900
 X2.675150 Y-0.840150
 X2.691400 Y-0.858650
 X2.839400
 X2.855900 Y-0.843150
 X2.864650 Y-0.837150
 X2.878150 Y-0.831650
 X2.879400
 Y-0.831400
 X2.880650
 X2.881650 Y-0.830900
 X2.882900
 Y-0.830650
 X2.884150
 Y-0.830400
 X2.885400
 X2.886400 Y-0.829900
 X2.887650
 Y-0.829650
 X2.888900
 Y-0.829400
 X2.890150
 Y-0.829150
 X2.895400
 Y-0.829400
 X2.896650
 Y-0.829650
 X2.897900
 Y-0.829900
 X2.909150
 X3.045900 Y-0.692900
 Y-0.682150
 X3.041650 Y-0.677900
 X3.030650
 Y-0.678150
 X3.029400
 X3.026150 Y-0.679150
 X3.024900
 X3.023900 Y-0.679650
 X3.022650
 Y-0.679900
 X3.019650
 X3.018650
 X3.017400
 Y-0.679650
 X3.016150
 Y-0.679400
 X3.014900
 Y-0.679150
 X3.013650
 X3.012400 Y-0.678650
 X3.011150
 Y-0.678400
 X3.009900
 X2.992400 Y-0.669900
 X2.982400 Y-0.660650
 X2.976400 Y-0.652400
 X2.971400 Y-0.639650
 Y-0.638400
 X2.970900 Y-0.637400
 Y-0.636150
 X2.970150 Y-0.633900
 Y-0.632650
 X2.969900
 Y-0.626900
 X2.970650 Y-0.624650
 Y-0.623150
 X2.970900
 Y-0.621900
 X2.971400 Y-0.620650
 Y-0.619400
 X2.971650
 Y-0.618150
 X2.981400 Y-0.599650
 X2.992650 Y-0.587650
 Y-0.576900
 X2.988400 Y-0.572650
 X2.982900
 Y-0.572400
 X2.981650
 Y-0.572150
 X2.980400
 X2.972400 Y-0.567900
 X2.965900 Y-0.557650
 Y-0.556400
 X2.965400 Y-0.555150
 Y-0.547650
 X2.968650 Y-0.544400
 X2.976150
 Y-0.561900
 X3.063900
 Y-0.544400
 X3.072150
 X3.073650 Y-0.545150
 X3.084400
 X3.096150 Y-0.539900
 X3.097650
 Y-0.539650
 X3.100150
 Y-0.539400
 X3.101650
 Y-0.539150
 X3.160650
 Y-0.539400
 X3.162150
 Y-0.539650
 X3.165900
 X3.175400 Y-0.543400
 X3.180650 Y-0.547650
 X3.215150 Y-0.582150
 X3.222650 Y-0.596650
 Y-0.598150
 X3.222900
 Y-0.600650
 X3.223150
 Y-0.805900
 X3.222900
 Y-0.809150
 X3.218900 Y-0.819900
 X3.214900 Y-0.824900
 X3.015150 Y-1.024650
 X3.000650 Y-1.032150
 X2.999150
 Y-1.032400
 X2.997150
 Y-1.032650
 X2.648150
 X2.413150 Y-1.267650
 Y-1.679900
 X2.431400 Y-1.696400
 X2.442400 Y-1.717150
 Y-1.718400
 X2.442650
 Y-1.719650
 X2.442900
 Y-1.720900
 X2.443400 Y-1.722150
 Y-1.723400
 X2.443650
 Y-1.724650
 X2.443900
 Y-1.725900
 X2.444150
 Y-1.727150
 X2.444400
 Y-1.732150
 X2.443900 Y-1.733400
 Y-1.734900
 X2.443650
 Y-1.736150
 X2.443400
 Y-1.737650
 X2.443150
 Y-1.738900
 X2.442900
 Y-1.740400
 X2.438400 Y-1.752400
 X2.432400 Y-1.761400
 X2.412900 Y-1.779900
 Y-1.790650
 X2.417150 Y-1.794900
 X2.549400
 X2.566150 Y-1.782150
 X2.579150 Y-1.777150
 X2.580400
 X2.582650 Y-1.776400
 X2.583900
 Y-1.776150
 X2.585150
 X2.588150 Y-1.775150
 X2.591400
 X2.592650 Y-1.775650
 X2.593900
 Y-1.775900
 X2.595150
 Y-1.776150
 X2.596400
 Y-1.776400
 X2.597650
 Y-1.776650
 X2.598900
 Y-1.776900
 X2.600150
 Y-1.777150
 X2.601400
 X2.613400 Y-1.781650
 X2.626650 Y-1.790650
 X2.637400
 X2.647150 Y-1.779150
 X2.654650 Y-1.775400
 X2.655900
 Y-1.775150
 X2.657150
 Y-1.774900
 X2.665650
 Y-1.785900
 X2.650400
 Y-1.873650
 X2.665650
 Y-1.884400
 X2.657150
 Y-1.884150
 X2.655900
 Y-1.883900
 X2.654650
 X2.646900 Y-1.880150
 X2.637400 Y-1.868900
 X2.626650
 X2.604150 Y-1.881650
 X2.602650
 X2.600650 Y-1.882400
 X2.599400
 Y-1.882650
 X2.598150
 Y-1.882900
 X2.596900
 Y-1.883150
 X2.595650
 X2.594400 Y-1.883650
 X2.593150
 Y-1.883900
 X2.588150
 Y-1.883650
 X2.586900
 Y-1.883400
 X2.585400
 Y-1.883150
 X2.584150
 Y-1.882900
 X2.582650
 X2.581400 Y-1.882400
 X2.579900
 Y-1.882150
 X2.578650
 X2.567150 Y-1.877650
 X2.549400 Y-1.864400
 X2.182650
 X2.164400 Y-1.873400
 X2.163150
 Y-1.873650
 X2.160900
 Y-1.873900
 X2.158900
 Y-1.874150
 X2.156900
 Y-1.874400
 X2.122650
 X2.112900 Y-1.885650
 X2.104400 Y-1.889400
 X2.103150
 Y-1.889650
 X2.100650
 Y-1.889900
 X2.072150
 Y-1.889650
 X2.036900
 Y-1.889400
 X2.035400
 Y-1.889150
 X2.033900
 X2.024150 Y-1.882400
 X2.020400 Y-1.873900
 Y-1.872650
 X2.020150
 Y-1.806900
 X2.020400
 Y-1.805650
 X2.020650
 Y-1.804400
 X2.025150 Y-1.795900
 X2.034650 Y-1.790150
 X2.035900
 Y-1.789900
 X2.037150
 Y-1.789650
 X2.102900
 Y-1.789900
 X2.104150
 Y-1.790150
 X2.105400
 X2.115150 Y-1.794900
 X2.157150
 X2.245400 Y-1.706650
 Y-1.639650
 X2.241150 Y-1.635400
 X2.234400
 X2.226650 Y-1.627900
 X2.228400 Y-1.621900
 Y-1.620400
 X2.228650
 Y-1.618650
 X2.228900
 Y-1.600900
 X2.228650
 Y-1.599150
 X2.228400
 Y-1.597650
 X2.228150
 Y-1.596400
 X2.226650 Y-1.591650
 X2.234400 Y-1.583900
 X2.241150
 X2.245400 Y-1.579650
 Y-1.439650
 X2.241150 Y-1.435400
 X2.234400
 X2.226650 Y-1.427900
 X2.228150 Y-1.423150
 Y-1.421900
 X2.228400
 Y-1.420400
 X2.228650
 Y-1.418650
 X2.228900
 Y-1.400900
 X2.228650
 Y-1.399150
 X2.228400
 Y-1.397650
 X2.228150
 Y-1.396400
 X2.226650 Y-1.391650
 X2.234400 Y-1.383900
 X2.241150
 X2.245400 Y-1.379650
 Y-1.252650
 X2.127150 Y-1.134400
 X2.061150
 X2.047150 Y-1.146900
 Y-1.149400
 X2.038400 Y-1.158150
 X2.033400 Y-1.156650
 X2.032150
 Y-1.156400
 X2.030650
 Y-1.156150
 X2.028900
 Y-1.155900
 X2.011150
 Y-1.156150
 X2.009400
 Y-1.156400
 X2.007900
 Y-1.156650
 X2.006650
 X2.001900 Y-1.158150
 X1.993150 Y-1.149400
 Y-1.146900
 X1.979400 Y-1.134400
 X1.883150
 X1.792650 Y-1.223650
 X1.783400 Y-1.230150
 X1.773150 Y-1.233650
 X1.770900
 Y-1.233900
 X1.768900
 Y-1.234150
 X1.766900
 Y-1.234400
 X1.712400
 X1.701900 Y-1.240400
 X1.699400 Y-1.244150
 Y-1.254900
 X1.701650 Y-1.258400
 X1.713650 Y-1.266150
 X1.721650 Y-1.275650
 X1.712400
 X1.706150 Y-1.269400
 X1.694900 Y-1.264650
 X1.692400
 Y-1.264400
 X1.689900
 Y-1.264150
 X1.650150
 Y-1.264400
 X1.647650
 Y-1.264650
 X1.645150
 X1.635650 Y-1.268400
 X1.629650 Y-1.272900
 X1.622150 Y-1.285150
 X1.614150
 X1.621150 Y-1.271650
 X1.640900 Y-1.254900
 Y-1.244150
 X1.638400 Y-1.240400
 X1.627900 Y-1.234400
 X1.583150
 X1.492650 Y-1.323650
 X1.483400 Y-1.330150
 X1.474400 Y-1.333400
 X1.473150
 Y-1.333650
 X1.470900
 Y-1.333900
 X1.468900
 Y-1.334150
 X1.466900
 Y-1.334400
 X1.412400
 X1.404900 Y-1.341150
 Y-1.358400
 X1.412400 Y-1.364900
 X1.426150
 Y-1.365150
 X1.428400
 Y-1.365400
 X1.431400
 Y-1.365650
 X1.433900
 X1.442900 Y-1.368900
 X1.452150 Y-1.375150
 X1.503650 Y-1.426650
 X1.510650 Y-1.436400
 X1.513900 Y-1.445400
 Y-1.446900
 X1.514150
 Y-1.448900
 X1.514400
 Y-1.450900
 X1.514650
 Y-1.452900
 X1.514900
 Y-1.925900
 X1.514650
 Y-1.927900
 X1.514400
 Y-1.930900
 X1.514150
 Y-1.933400
 X1.508650 Y-1.946650
 X1.504650 Y-1.951650
 X1.432650 Y-2.023650
 X1.423400 Y-2.030150
 X1.414400 Y-2.033400
 X1.413150
 Y-2.033650
 X1.410900
 Y-2.033900
 X1.408900
 Y-2.034150
 X1.406900
 Y-2.034400
 X1.346650
 X1.342400 Y-2.038650
 Y-2.049400
 X1.361150 Y-2.066150
 X1.367400 Y-2.075150
 X1.372400 Y-2.087150
 Y-2.088400
 X1.372900 Y-2.089650
 Y-2.090900
 X1.373150
 Y-2.092150
 X1.373400
 Y-2.093400
 X1.373650
 Y-2.094650
 X1.373900
 Y-2.095900
 X1.374150
 Y-2.097150
 X1.374400
 Y-2.101400
 X1.374650
 Y-2.106400
 X1.383150 Y-2.114900
 X1.434900
 X1.448150 Y-2.105650
 X1.459150 Y-2.101150
 X1.460400
 X1.461400 Y-2.100650
 X1.462650
 X1.464900 Y-2.099900
 X1.466150
 X1.468400 Y-2.099150
 X1.471150
 Y-2.099400
 X1.472400
 Y-2.099650
 X1.473650
 X1.474900 Y-2.100150
 X1.476400
 Y-2.100400
 X1.477650
 Y-2.100650
 X1.478900
 Y-2.100900
 X1.480150
 X1.491400 Y-2.105150
 X1.499900 Y-2.110650
 X1.514900 Y-2.125900
 X1.525650
 X1.539650 Y-2.111150
 X1.549150 Y-2.105150
 X1.561400 Y-2.100650
 X1.562650
 X1.563650 Y-2.100150
 X1.564900
 Y-2.099900
 X1.566150
 X1.567150 Y-2.099400
 X1.568400
 Y-2.099150
 X1.571150
 Y-2.099400
 X1.572400
 X1.573650 Y-2.099900
 X1.574900
 Y-2.100150
 X1.576400
 Y-2.100400
 X1.577650
 Y-2.100650
 X1.578900
 X1.580150 Y-2.101150
 X1.581400
 X1.590900 Y-2.104900
 X1.605400 Y-2.114900
 X1.616150
 Y-2.115150
 X1.618400
 Y-2.115400
 X1.621400
 Y-2.115650
 X1.623900
 X1.632900 Y-2.118900
 X1.642150 Y-2.125150
 X1.793650 Y-2.276650
 X1.800650 Y-2.286400
 X1.803900 Y-2.295400
 Y-2.296900
 X1.804150
 Y-2.298900
 X1.804400
 Y-2.300900
 X1.804650
 Y-2.302900
 X1.804900
 Y-2.308900
 X1.817400 Y-2.325150
 X1.822400 Y-2.337150
 Y-2.338400
 X1.822900 Y-2.339650
 Y-2.340900
 X1.823150
 Y-2.342150
 X1.823400
 Y-2.343400
 X1.823650
 Y-2.344650
 X1.823900
 Y-2.345900
 X1.824150
 Y-2.347150
 X1.824400
 Y-2.352150
 X1.824150
 Y-2.353400
 X1.823900
 Y-2.354900
 X1.823400 Y-2.356150
 Y-2.357650
 X1.823150
 Y-2.358900
 X1.822900
 Y-2.360400
 X1.822650
 Y-2.361650
 X1.818400 Y-2.372400
 X1.805900 Y-2.388650
 X1.784150 Y-2.401650
 X1.782650
 X1.779400 Y-2.402650
 X1.778150
 Y-2.402900
 X1.776900
 Y-2.403150
 X1.775650
 Y-2.403400
 X1.774400
 X1.773150 Y-2.403900
 X1.768150
 Y-2.403650
 X1.766900
 Y-2.403400
 X1.765400
 Y-2.403150
 X1.764150
 Y-2.402900
 X1.762650
 X1.761400 Y-2.402400
 X1.759900
 Y-2.402150
 X1.758650
 X1.747150 Y-2.397650
 X1.735900 Y-2.389900
 X1.723400 Y-2.374900
 X1.717900 Y-2.362150
 Y-2.360900
 X1.717400 Y-2.359900
 Y-2.358650
 X1.716900 Y-2.357650
 Y-2.356400
 X1.716400 Y-2.355400
 Y-2.354150
 X1.715900 Y-2.353150
 Y-2.346900
 X1.716150
 Y-2.345650
 X1.716650 Y-2.344650
 Y-2.343150
 X1.716900
 Y-2.341900
 X1.717150
 Y-2.340650
 X1.717400
 Y-2.339400
 X1.717650
 Y-2.338150
 X1.717900
 Y-2.336900
 X1.728650 Y-2.316400
 Y-2.305650
 X1.639900 Y-2.217150
 X1.629150
 X1.624900 Y-2.221400
 Y-2.231900
 X1.621650 Y-2.235150
 X1.613900
 Y-2.217650
 X1.526150
 Y-2.235150
 X1.518650
 X1.515400 Y-2.231900
 Y-2.224150
 X1.515650
 Y-2.222900
 X1.519650 Y-2.214150
 X1.530400 Y-2.207150
 X1.531650
 Y-2.206900
 X1.532900
 Y-2.206650
 X1.538150
 X1.542400 Y-2.202400
 Y-2.191650
 X1.525400 Y-2.173400
 X1.514650
 X1.501150 Y-2.187650
 X1.481900 Y-2.197900
 X1.480650
 X1.477400 Y-2.198900
 X1.476150
 Y-2.199150
 X1.474900
 X1.473900 Y-2.199650
 X1.472650
 Y-2.199900
 X1.469650
 X1.468650
 X1.467400
 Y-2.199650
 X1.466150
 Y-2.199400
 X1.464900
 X1.463650 Y-2.198900
 X1.462400
 Y-2.198650
 X1.461150
 Y-2.198400
 X1.459900
 X1.449650 Y-2.194400
 X1.434900 Y-2.184400
 X1.373900
 Y-2.184150
 X1.371900
 Y-2.183900
 X1.368900
 Y-2.183650
 X1.366400
 X1.352900 Y-2.177900
 X1.326900 Y-2.154150
 X1.319650
 Y-2.153900
 X1.318150
 Y-2.153650
 X1.316900
 Y-2.153400
 X1.315400
 X1.314150 Y-2.152900
 X1.312650
 Y-2.152650
 X1.311400
 Y-2.152400
 X1.309900
 Y-2.152150
 X1.308650
 X1.297150 Y-2.147650
 X1.285900 Y-2.139900
 X1.273400 Y-2.124900
 X1.267900 Y-2.112150
 Y-2.110900
 X1.267400 Y-2.109900
 Y-2.108650
 X1.266900 Y-2.107650
 Y-2.106400
 X1.266400 Y-2.105400
 Y-2.104150
 X1.265900 Y-2.103150
 Y-2.096900
 X1.266150
 Y-2.095650
 X1.266400
 Y-2.094400
 X1.266900 Y-2.093150
 Y-2.091900
 X1.267150
 Y-2.090650
 X1.267400
 Y-2.089400
 X1.267650
 Y-2.088150
 X1.267900
 Y-2.086900
 X1.278400 Y-2.067150
 X1.299900 Y-2.048150
 Y-2.037400
 X1.297650 Y-2.033900
 X1.287400 Y-2.030400
 X1.277400 Y-2.023400
 X0.996150 Y-1.742150
 X0.990900 Y-1.735150
 X0.986400 Y-1.723900
 Y-1.722650
 X0.986150
 Y-1.720400
 X0.985900
 Y-1.718150
 X0.985650
 Y-1.716150
 X0.977900 Y-1.709400
 X0.973900
 Y-1.709150
 X0.971900
 Y-1.708900
 X0.968900
 Y-1.708650
 X0.966400
 X0.953650 Y-1.703400
 X0.947650 Y-1.698650
 X0.896150 Y-1.647150
 X0.890900 Y-1.640150
 X0.886400 Y-1.628900
 Y-1.627650
 X0.886150
 Y-1.625400
 X0.885900
 Y-1.623400
 X0.885650
 Y-1.621400
 X0.885400
 Y-0.715650
 X0.872900 Y-0.701650
 X0.870650
 X0.861650 Y-0.692900
 X0.863150 Y-0.688150
 Y-0.686900
 X0.863400
 Y-0.685400
 X0.863650
 Y-0.683650
 X0.863900
 Y-0.665900
 X0.863650
 Y-0.664150
 X0.863400
 Y-0.662650
 X0.863150
 Y-0.661400
 X0.861650 Y-0.656650
 X0.870650 Y-0.647650
 X0.872900
 X0.885400 Y-0.633900
 Y-0.518650
 X0.881150 Y-0.514400
 X0.853900
 Y-0.514150
 X0.851900
 Y-0.513900
 X0.848900
 Y-0.513650
 X0.846400
 X0.833650 Y-0.508400
 X0.827650 Y-0.503650
 X0.742400 Y-0.419650
 X0.706900
 Y-0.419400
 X0.705400
 Y-0.419150
 X0.703900
 X0.697400 Y-0.415650
 X0.687650 Y-0.404400
 X0.633150
 X0.285150 Y-0.751400
 X0.276150 Y-0.756400
 X0.173900 Y-0.859650
 X0.161650 Y-0.868150
 X0.155400 Y-0.877150
 X0.151650 Y-0.887650
 Y-0.889150
 X0.151400
 Y-0.890900
 X0.151150
 Y-0.908650
 X0.151400
 Y-0.910400
 X0.151650
 Y-0.911900
 X0.158150 Y-0.927150
 X0.170650 Y-0.938150
 Y-0.946900
 X0.167400 Y-0.945400
 X0.156650
 X0.152400 Y-0.949650
 Y-1.049650
 X0.156650 Y-1.053900
 X0.167400
 X0.170650 Y-1.052650
 Y-1.061400
 X0.158150 Y-1.072400
 X0.151900 Y-1.086400
 Y-1.087650
 X0.151650
 Y-1.089150
 X0.151400
 Y-1.090900
 X0.151150
 Y-1.108650
 X0.151400
 Y-1.110400
 X0.151650
 Y-1.111900
 X0.151900
 Y-1.113150
 X0.157150 Y-1.125650
 X0.163400 Y-1.133150
 X0.172400 Y-1.139400
 X0.182900 Y-1.143150
 X0.184400
 Y-1.143400
 X0.186150
 Y-1.143650
 X0.203900
 Y-1.143400
 X0.205650
 Y-1.143150
 X0.207150
 X0.213400 Y-1.141400
 X0.218900 Y-1.147400
 X0.207150 Y-1.152150
 X0.204900 Y-1.155650
 Y-1.166400
 X0.443650 Y-1.406650
 X0.450650 Y-1.416400
 X0.453900 Y-1.425400
 Y-1.426900
 X0.454150
 Y-1.428900
 X0.454400
 Y-1.430900
 X0.454650
 Y-1.432650
 X0.454900
 Y-1.433900
 X0.467400 Y-1.450150
 X0.472400 Y-1.462150
 Y-1.463400
 X0.472650
 Y-1.464650
 X0.472900
 Y-1.465900
 X0.473400 Y-1.467150
 Y-1.468400
 X0.473650
 Y-1.469650
 X0.473900
 Y-1.470900
 X0.474400 Y-1.472150
 Y-1.477150
 X0.473900 Y-1.478400
 Y-1.479900
 X0.473650
 Y-1.481150
 X0.473400
 Y-1.482650
 X0.473150
 Y-1.483900
 X0.472900
 Y-1.485400
 X0.468400 Y-1.497400
 X0.454900 Y-1.515650
 Y-1.582400
 X0.461150 Y-1.593400
 X0.464900 Y-1.595900
 X0.475650
 X0.479400 Y-1.593400
 X0.488150 Y-1.579650
 X0.496150 Y-1.572900
 X0.513900 Y-1.565400
 X0.515150
 Y-1.565150
 X0.517150
 Y-1.564900
 X0.519400
 X0.520650
 X0.532150
 X0.552900 Y-1.546400
 X0.565900 Y-1.540900
 X0.567400
 Y-1.540650
 X0.569400
 Y-1.540400
 X0.571400
 Y-1.540150
 X0.573400
 Y-1.539900
 X0.677900
 X0.688900 Y-1.533650
 X0.691400 Y-1.529900
 Y-1.519150
 X0.688900 Y-1.515400
 X0.674900 Y-1.506400
 X0.668400 Y-1.498650
 X0.660650 Y-1.479900
 Y-1.477650
 X0.660400
 Y-1.475400
 X0.660150
 Y-1.473150
 X0.660400
 Y-1.470400
 X0.668900 Y-1.450400
 X0.674650 Y-1.443400
 X0.688900 Y-1.433650
 X0.691400 Y-1.429900
 Y-1.419150
 X0.688900 Y-1.415400
 X0.675150 Y-1.406650
 X0.668400 Y-1.398650
 X0.660650 Y-1.379900
 Y-1.377650
 X0.660400
 Y-1.375400
 X0.660150
 Y-1.373150
 X0.660400
 Y-1.370400
 X0.668900 Y-1.350400
 X0.674650 Y-1.343400
 X0.688900 Y-1.333650
 X0.691400 Y-1.329900
 Y-1.319150
 X0.688900 Y-1.315400
 X0.674900 Y-1.306400
 X0.668400 Y-1.298650
 X0.660650 Y-1.279900
 Y-1.277650
 X0.660400
 Y-1.275400
 X0.660150
 Y-1.273150
 X0.660400
 Y-1.270400
 X0.660650
 Y-1.269150
 X0.668900 Y-1.250400
 X0.674650 Y-1.243400
 X0.688900 Y-1.233650
 X0.691400 Y-1.229900
 Y-1.219150
 X0.688900 Y-1.215400
 X0.675150 Y-1.206650
 X0.668400 Y-1.198650
 X0.660650 Y-1.179900
 Y-1.177650
 X0.660400
 Y-1.175400
 X0.660150
 Y-1.173150
 X0.660400
 Y-1.170400
 X0.668900 Y-1.149650
 Y-1.138650
 X0.664650 Y-1.134400
 X0.549150
 X0.535150 Y-1.148150
 X0.524900 Y-1.155400
 X0.499400 Y-1.163900
 X0.492400
 Y-1.163650
 X0.490900
 X0.489650 Y-1.163150
 X0.488150
 Y-1.162900
 X0.486650
 X0.485400 Y-1.162400
 X0.483900
 Y-1.162150
 X0.482400
 X0.468900 Y-1.157150
 X0.457650 Y-1.150150
 X0.441400 Y-1.134400
 X0.336150
 X0.319900 Y-1.146650
 X0.309150 Y-1.151650
 X0.298150 Y-1.153900
 X0.293150
 Y-1.153650
 X0.291900
 Y-1.153400
 X0.290400
 X0.289150 Y-1.152900
 X0.287650
 X0.286400 Y-1.152400
 X0.284900
 X0.273150 Y-1.148150
 X0.263400 Y-1.142150
 X0.247900 Y-1.126650
 X0.245650
 X0.236650 Y-1.117900
 X0.238150 Y-1.113150
 Y-1.111900
 X0.238400
 Y-1.110400
 X0.238650
 Y-1.108650
 X0.238900
 Y-1.090900
 X0.238650
 Y-1.089150
 X0.238400
 Y-1.087650
 X0.238150
 Y-1.086400
 X0.236650 Y-1.081650
 X0.245650 Y-1.072650
 X0.247900
 X0.262150 Y-1.058150
 X0.271150 Y-1.052150
 X0.291900 Y-1.045400
 X0.293150
 Y-1.045150
 X0.296400
 X0.297650 Y-1.045650
 X0.298900
 X0.318400 Y-1.051650
 X0.336150 Y-1.064900
 X0.441400
 X0.455900 Y-1.050650
 X0.466400 Y-1.043400
 X0.492150 Y-1.035400
 X0.497650
 X0.500150 Y-1.036150
 X0.501400
 Y-1.036400
 X0.502650
 X0.503900 Y-1.036900
 X0.505150
 X0.506400 Y-1.037400
 X0.507650
 X0.508900 Y-1.037900
 X0.510150
 X0.522900 Y-1.042900
 X0.533650 Y-1.049900
 X0.548900 Y-1.064900
 X0.659150
 X0.662650 Y-1.062650
 X0.668150 Y-1.051400
 X0.673650 Y-1.044400
 X0.688900 Y-1.033650
 X0.691400 Y-1.029900
 Y-1.019150
 X0.688900 Y-1.015400
 X0.677900 Y-1.009400
 X0.573900
 Y-1.009150
 X0.571900
 Y-1.008900
 X0.568900
 Y-1.008650
 X0.566400
 X0.553650 Y-1.003400
 X0.547650 Y-0.998650
 X0.511150 Y-0.963400
 X0.500400
 X0.499150 Y-0.963900
 X0.492400
 Y-0.963650
 X0.490900
 X0.489650 Y-0.963150
 X0.488150
 Y-0.962900
 X0.486650
 X0.485400 Y-0.962400
 X0.483900
 Y-0.962150
 X0.482400
 X0.468900 Y-0.957150
 X0.457650 Y-0.950150
 X0.441400 Y-0.934400
 X0.336150
 X0.319900 Y-0.946650
 X0.309150 Y-0.951650
 X0.298150 Y-0.953900
 X0.293150
 Y-0.953650
 X0.291900
 Y-0.953400
 X0.290400
 X0.289150 Y-0.952900
 X0.287650
 X0.286400 Y-0.952400
 X0.284900
 X0.273150 Y-0.948150
 X0.263400 Y-0.942150
 X0.247900 Y-0.926650
 X0.245650
 X0.236650 Y-0.917900
 X0.238400 Y-0.911900
 Y-0.910400
 X0.238650
 Y-0.908650
 X0.238900
 Y-0.890900
 X0.238650
 Y-0.889150
 X0.238400
 Y-0.887650
 X0.236650 Y-0.881650
 X0.245650 Y-0.872650
 X0.247900
 X0.262150 Y-0.858150
 X0.271150 Y-0.852150
 X0.291900 Y-0.845400
 X0.293150
 Y-0.845150
 X0.296400
 X0.297650 Y-0.845650
 X0.298900
 X0.318400 Y-0.851650
 X0.336150 Y-0.864900
 X0.441400
 X0.455900 Y-0.850650
 X0.466400 Y-0.843400
 X0.492150 Y-0.835400
 X0.497650
 X0.500150 Y-0.836150
 X0.501400
 Y-0.836400
 X0.502650
 X0.503900 Y-0.836900
 X0.505150
 X0.506400 Y-0.837400
 X0.507650
 X0.508900 Y-0.837900
 X0.510150
 X0.522900 Y-0.842900
 X0.532900 Y-0.849400
 X0.543900 Y-0.860150
 X0.551150 Y-0.870650
 X0.557150 Y-0.885400
 Y-0.886650
 X0.557650 Y-0.887650
 Y-0.888900
 X0.558150 Y-0.890150
 Y-0.891400
 X0.558900 Y-0.893650
 Y-0.894900
 X0.559150
 Y-0.896150
 X0.559400
 Y-0.902150
 X0.559150
 Y-0.904150
 X0.558900
 Y-0.915400
 X0.583150 Y-0.939900
 X0.677900
 X0.688400 Y-0.934150
 X0.690900 Y-0.930400
 Y-0.919650
 X0.671150 Y-0.902900
 X0.664150 Y-0.889400
 X0.672150
 X0.679650 Y-0.901650
 X0.695150 Y-0.909900
 X0.697650
 Y-0.910150
 X0.700150
 Y-0.910400
 X0.739900
 Y-0.910150
 X0.742400
 Y-0.909900
 X0.744900
 X0.754400 Y-0.906150
 X0.760400 Y-0.901650
 X0.767900 Y-0.889400
 X0.776150
 X0.769150 Y-0.902900
 X0.749400 Y-0.919650
 Y-0.930400
 X0.751900 Y-0.934150
 X0.765150 Y-0.942650
 X0.771900 Y-0.950650
 X0.779650 Y-0.969400
 Y-0.971650
 X0.779900
 Y-0.973900
 X0.780150
 Y-0.976150
 X0.779900
 Y-0.978900
 X0.779650
 Y-0.980150
 X0.771400 Y-0.998900
 X0.765400 Y-1.006150
 X0.751400 Y-1.015650
 X0.748900 Y-1.019400
 Y-1.030150
 X0.751400 Y-1.033900
 X0.765150 Y-1.042650
 X0.771900 Y-1.050650
 X0.779650 Y-1.069400
 Y-1.071650
 X0.779900
 Y-1.073900
 X0.780150
 Y-1.076150
 X0.779900
 Y-1.077900
 X0.779650
 Y-1.080150
 X0.771400 Y-1.098900
 X0.765400 Y-1.106150
 X0.751400 Y-1.115650
 X0.748900 Y-1.119400
 Y-1.130150
 X0.751400 Y-1.133900
 X0.765150 Y-1.142650
 X0.771900 Y-1.150650
 X0.779650 Y-1.169400
 Y-1.171650
 X0.779900
 Y-1.173900
 X0.780150
 Y-1.176150
 X0.779900
 Y-1.178900
 X0.779650
 Y-1.180150
 X0.771400 Y-1.198900
 X0.765400 Y-1.206150
 X0.751400 Y-1.215650
 X0.748900 Y-1.219400
 Y-1.230150
 X0.751400 Y-1.233900
 X0.765150 Y-1.242650
 X0.771900 Y-1.250650
 X0.779650 Y-1.269400
 Y-1.271650
 X0.779900
 Y-1.273900
 X0.780150
 Y-1.276150
 X0.779900
 Y-1.277900
 X0.779650
 Y-1.280150
 X0.771400 Y-1.298900
 X0.765400 Y-1.306150
 X0.751400 Y-1.315650
 X0.748900 Y-1.319400
 Y-1.330150
 X0.751400 Y-1.333900
 X0.765150 Y-1.342650
 X0.771900 Y-1.350650
 X0.779650 Y-1.369400
 Y-1.371650
 X0.779900
 Y-1.373900
 X0.780150
 Y-1.376150
 X0.779900
 Y-1.378900
 X0.779650
 Y-1.380150
 X0.771400 Y-1.398900
 X0.765400 Y-1.406150
 X0.751400 Y-1.415650
 X0.748900 Y-1.419400
 Y-1.430150
 X0.751400 Y-1.433900
 X0.765150 Y-1.442650
 X0.771900 Y-1.450650
 X0.779650 Y-1.469400
 Y-1.471650
 X0.779900
 Y-1.473900
 X0.780150
 Y-1.476150
 X0.779900
 Y-1.477900
 X0.779650
 Y-1.480150
 X0.771400 Y-1.498900
 X0.765400 Y-1.506150
 X0.751400 Y-1.515650
 X0.748900 Y-1.519400
 Y-1.530150
 X0.751400 Y-1.533900
 X0.765150 Y-1.542650
 X0.771900 Y-1.550650
 X0.779650 Y-1.569400
 Y-1.571650
 X0.779900
 Y-1.573900
 X0.780150
 Y-1.576150
 X0.779900
 Y-1.578900
 X0.779650
 Y-1.580150
 X0.772650 Y-1.597150
 X0.758150 Y-1.613650
 Y-1.624400
 X0.763150 Y-1.628900
 X0.764400
 X0.773900 Y-1.633650
 X0.779650 Y-1.643150
 Y-1.644400
 X0.779900
 Y-1.645650
 X0.780150
 Y-1.648650
 X0.780400
 Y-1.653900
 X0.780150
 Y-1.703900
 X0.779900
 Y-1.705400
 X0.779650
 Y-1.706900
 X0.772900 Y-1.716650
 X0.764400 Y-1.720400
 X0.763150
 Y-1.720650
 X0.760650
 Y-1.720900
 X0.749650
 Y-1.720650
 X0.721900
 X0.687900 Y-1.752650
 X0.674400 Y-1.758400
 X0.668150 Y-1.755900
 X0.666150
 Y-1.755650
 X0.257900
 X0.247650 Y-1.748650
 X0.196150 Y-1.697150
 X0.188650 Y-1.685400
 X0.178150 Y-1.677400
 X0.174650 Y-1.670150
 Y-1.668900
 X0.174400
 Y-1.667650
 X0.174150
 Y-1.581900
 X0.174400
 Y-1.580650
 X0.176400 Y-1.574650
 X0.181400 Y-1.568650
 X0.191150 Y-1.564650
 X0.249650
 X0.256150 Y-1.566900
 X0.262150 Y-1.571900
 X0.266900 Y-1.583900
 X0.270400 Y-1.586150
 X0.281150
 X0.295650 Y-1.573650
 Y-1.582650
 X0.289650 Y-1.588650
 X0.284900 Y-1.599900
 Y-1.602400
 X0.284650
 Y-1.604900
 X0.284400
 Y-1.644650
 X0.284650
 Y-1.647150
 X0.284900
 Y-1.649650
 X0.288650 Y-1.659150
 X0.293150 Y-1.665150
 X0.299650 Y-1.670150
 X0.309150 Y-1.673900
 X0.311650
 Y-1.674150
 X0.314150
 Y-1.674400
 X0.325900
 Y-1.674150
 X0.328400
 Y-1.673900
 X0.330900
 X0.340400 Y-1.670150
 X0.346650 Y-1.665400
 X0.355150 Y-1.649650
 Y-1.647150
 X0.355400
 Y-1.644650
 X0.355650
 Y-1.604900
 X0.355400
 Y-1.602400
 X0.355150
 Y-1.599900
 X0.350400 Y-1.588650
 X0.344150 Y-1.582400
 Y-1.573150
 X0.350900 Y-1.578150
 X0.361650 Y-1.593150
 X0.365150 Y-1.595400
 X0.375900
 X0.379650 Y-1.592900
 X0.385400 Y-1.582400
 Y-1.515650
 X0.372900 Y-1.501650
 X0.370650
 X0.361650 Y-1.492900
 X0.363150 Y-1.488150
 Y-1.486900
 X0.363400
 Y-1.485400
 X0.363650
 Y-1.483650
 X0.363900
 Y-1.465900
 X0.363650
 Y-1.464150
 X0.363400
 Y-1.462650
 X0.363150
 Y-1.461400
 X0.357900 Y-1.448900
 X0.351650 Y-1.441400
 X0.342650 Y-1.435150
 X0.332150 Y-1.431400
 X0.330650
 Y-1.431150
 X0.328900
 Y-1.430900
 X0.311150
 Y-1.431150
 X0.309400
 Y-1.431400
 X0.307900
 X0.301900 Y-1.433150
 X0.296150 Y-1.427150
 X0.314650 Y-1.420400
 X0.316650
 Y-1.420150
 X0.321900
 Y-1.420400
 X0.323900
 Y-1.420650
 X0.325650
 Y-1.420900
 X0.327400
 Y-1.421150
 X0.329150
 X0.336400 Y-1.423650
 X0.347150
 X0.351400 Y-1.419400
 Y-1.408650
 X0.109900 Y-1.167150
 X0.099150
 X0.094900 Y-1.171400
 Y-1.686650
 X0.243650 Y-1.836650
 X0.250650 Y-1.846400
 X0.253900 Y-1.855400
 Y-1.856900
 X0.254150
 Y-1.858900
 X0.254400
 Y-1.860900
 X0.254650
 Y-1.862900
 X0.254900
 Y-1.882400
 X0.261150 Y-1.893400
 X0.264900 Y-1.895900
 X0.275650
 X0.279400 Y-1.893400
 X0.288150 Y-1.879650
 X0.296150 Y-1.872900
 X0.315150 Y-1.865150
 X0.317150
 Y-1.864900
 X0.319400
 Y-1.864650
 X0.321650
 Y-1.864900
 X0.324400
 X0.344400 Y-1.873400
 X0.351650 Y-1.879400
 X0.361150 Y-1.893400
 X0.364900 Y-1.895900
 X0.375650
 X0.379400 Y-1.893400
 X0.388150 Y-1.879650
 X0.396150 Y-1.872900
 X0.415150 Y-1.865150
 X0.417150
 Y-1.864900
 X0.419400
 Y-1.864650
 X0.421650
 Y-1.864900
 X0.424400
 X0.444400 Y-1.873400
 X0.451650 Y-1.879400
 X0.461150 Y-1.893400
 X0.464900 Y-1.895900
 X0.475650
 X0.479400 Y-1.893400
 X0.488150 Y-1.879650
 X0.496150 Y-1.872900
 X0.513900 Y-1.865400
 X0.515150
 Y-1.865150
 X0.517150
 Y-1.864900
 X0.519400
 Y-1.864650
 X0.521650
 Y-1.864900
 X0.524400
 X0.537900 Y-1.869650
 X0.550400 Y-1.878150
 X0.557400 Y-1.886400
 X0.565150 Y-1.904650
 Y-1.906900
 X0.565400
 Y-1.909150
 X0.565650
 Y-1.911150
 X0.565900
 Y-1.913400
 X0.566150
 Y-1.935400
 X0.565900
 Y-1.938150
 X0.565650
 Y-1.940900
 X0.565400
 Y-1.943650
 X0.565150
 Y-1.944900
 X0.558150 Y-1.961900
 X0.550900 Y-1.970900
 X0.538650 Y-1.979400
 X0.525400 Y-1.984150
 X0.523150
 Y-1.984400
 X0.520900
 Y-1.984650
 X0.518650
 Y-1.984400
 X0.515900
 Y-1.984150
 X0.514650
 X0.505900 Y-1.981400
 X0.490900 Y-1.972650
 X0.480150
 X0.475900 Y-1.976900
 Y-1.987650
 X0.743650 Y-2.256650
 X0.749400 Y-2.264150
 X0.753900 Y-2.275400
 Y-2.276900
 X0.754150
 Y-2.278150
 X0.767400 Y-2.295150
 X0.772650 Y-2.308400
 Y-2.309650
 X0.772900
 Y-2.310900
 X0.773150
 Y-2.312150
 X0.773400
 Y-2.313400
 X0.773650
 Y-2.314650
 X0.773900
 Y-2.315900
 X0.774150
 Y-2.317150
 X0.774400
 Y-2.322150
 X0.774150
 Y-2.323400
 X0.773900
 Y-2.324900
 X0.773400 Y-2.325900
 Y-2.327650
 X0.773150
 Y-2.328900
 X0.772900
 Y-2.330400
 X0.772650
 Y-2.331650
 X0.768400 Y-2.342400
 X0.754900 Y-2.360650
 Y-2.458900
 X0.767400 Y-2.475150
 X0.772400 Y-2.487150
 Y-2.488400
 X0.772650
 Y-2.489650
 X0.772900
 Y-2.490900
 X0.773150
 Y-2.492150
 X0.773400
 Y-2.493400
 X0.773650
 Y-2.494650
 X0.774150 Y-2.495900
 Y-2.497150
 X0.774400
 Y-2.502150
 X0.774150
 Y-2.503400
 X0.773900
 Y-2.504900
 X0.773650
 Y-2.506150
 X0.773400
 Y-2.507650
 X0.772900 Y-2.508900
 Y-2.510400
 X0.772650
 Y-2.511650
 X0.768400 Y-2.522400
 X0.755900 Y-2.538650
 X0.744900 Y-2.546650
 X0.733150 Y-2.551900
 X0.731900
 X0.730650 Y-2.552400
 X0.729400
 X0.728150 Y-2.552900
 X0.726900
 X0.725650 Y-2.553400
 X0.724400
 X0.723150 Y-2.553900
 X0.718150
 Y-2.553650
 X0.716900
 Y-2.553400
 X0.715400
 X0.714150 Y-2.552900
 X0.712650
 Y-2.552650
 X0.711400
 Y-2.552400
 X0.709900
 Y-2.552150
 X0.708650
 X0.688400 Y-2.542150
 X0.672900 Y-2.526650
 X0.670650
 X0.661650 Y-2.517900
 X0.663150 Y-2.513150
 Y-2.511900
 X0.663400
 Y-2.510400
 X0.663650
 Y-2.508650
 X0.663900
 Y-2.490900
 X0.663650
 Y-2.489150
 X0.663400
 Y-2.487650
 X0.661650 Y-2.481650
 X0.670650 Y-2.472650
 X0.672900
 X0.685400 Y-2.458900
 Y-2.360650
 X0.673400 Y-2.344900
 X0.667900 Y-2.332150
 Y-2.330900
 X0.667400 Y-2.329900
 Y-2.328650
 X0.666900 Y-2.327650
 Y-2.326400
 X0.666400 Y-2.325400
 Y-2.324150
 X0.665900 Y-2.323150
 Y-2.316900
 X0.666150
 Y-2.315650
 X0.666400
 Y-2.314400
 X0.666650
 Y-2.313150
 X0.667150 Y-2.311900
 Y-2.310650
 X0.667400
 Y-2.309400
 X0.667650
 Y-2.308150
 X0.667900
 Y-2.306900
 X0.674650 Y-2.292400
 Y-2.281650
 X0.396150 Y-2.002150
 X0.390900 Y-1.995150
 X0.386400 Y-1.983900
 Y-1.982650
 X0.386150
 Y-1.980400
 X0.385900
 Y-1.978400
 X0.385650
 Y-1.976400
 X0.385400
 Y-1.966900
 X0.379150 Y-1.955900
 X0.375400 Y-1.953400
 X0.364650
 X0.360900 Y-1.955900
 X0.354900 Y-1.966900
 Y-2.006400
 X0.363650 Y-2.017900
 X0.543650 Y-2.196650
 X0.550650 Y-2.206400
 X0.553900 Y-2.215400
 Y-2.216900
 X0.554150
 Y-2.218900
 X0.554400
 Y-2.220900
 X0.554650
 Y-2.222900
 X0.554900
 Y-2.441400
 X0.557150 Y-2.444900
 X0.567400 Y-2.449400
 X0.574400 Y-2.460400
 X0.577900 Y-2.462650
 X0.588650
 X0.592150 Y-2.460400
 X0.594900 Y-2.452650
 X0.614650 Y-2.445400
 X0.616650
 Y-2.445150
 X0.621900
 Y-2.445400
 X0.623900
 Y-2.445650
 X0.625650
 Y-2.445900
 X0.627400
 Y-2.446150
 X0.629150
 X0.644150 Y-2.451900
 X0.638400 Y-2.458150
 X0.633400 Y-2.456650
 X0.632150
 Y-2.456400
 X0.630650
 Y-2.456150
 X0.628900
 Y-2.455900
 X0.611150
 Y-2.456150
 X0.609400
 Y-2.456400
 X0.607900
 Y-2.456650
 X0.606650
 X0.594150 Y-2.461900
 X0.586650 Y-2.468150
 X0.580400 Y-2.477150
 X0.576650 Y-2.487650
 Y-2.489150
 X0.576400
 Y-2.490900
 X0.576150
 Y-2.508650
 X0.576400
 Y-2.510400
 X0.576650
 Y-2.511900
 X0.576900
 Y-2.513150
 X0.583150 Y-2.527150
 X0.595650 Y-2.538150
 Y-2.546900
 X0.592150 Y-2.538900
 X0.588650 Y-2.536650
 X0.577900
 X0.574400 Y-2.538900
 X0.568400 Y-2.548900
 X0.560150 Y-2.553650
 X0.558650
 X0.557650 Y-2.554150
 X0.482900
 X0.473150 Y-2.550150
 X0.466150 Y-2.539400
 Y-2.538150
 X0.465900
 Y-2.536900
 X0.465650
 Y-2.462650
 X0.465900
 Y-2.461400
 X0.466150
 Y-2.460150
 X0.466400
 Y-2.458900
 X0.471900 Y-2.450400
 X0.483150 Y-2.444900
 X0.485400 Y-2.441400
 Y-2.232650
 X0.349650 Y-2.096900
 X0.338900
 X0.324400 Y-2.101150
 X0.323150
 Y-2.101400
 X0.318150
 X0.316900 Y-2.100900
 X0.315400
 X0.314150 Y-2.100400
 X0.312650
 X0.311400 Y-2.099900
 X0.309900
 X0.297150 Y-2.095150
 X0.285900 Y-2.087400
 X0.273400 Y-2.072400
 X0.267900 Y-2.059650
 Y-2.058400
 X0.267400 Y-2.057400
 Y-2.056150
 X0.266900 Y-2.055150
 Y-2.053900
 X0.266400 Y-2.052900
 Y-2.051650
 X0.265900 Y-2.050650
 Y-2.044400
 X0.266150
 Y-2.043150
 X0.266400
 Y-2.041900
 X0.266900 Y-2.040650
 Y-2.039400
 X0.267150
 Y-2.038150
 X0.267400
 Y-2.036900
 X0.267650
 Y-2.035650
 X0.267900
 Y-2.034400
 X0.272400 Y-2.023650
 X0.285400 Y-2.006400
 Y-1.966900
 X0.279150 Y-1.955900
 X0.275400 Y-1.953400
 X0.264650
 X0.260900 Y-1.955900
 X0.252150 Y-1.969650
 X0.244150 Y-1.976400
 X0.225400 Y-1.984150
 X0.223150
 Y-1.984400
 X0.220900
 X0.219650
 X0.208150
 X0.152900 Y-2.037650
 X0.141150 Y-2.042900
 X0.134150 Y-2.050400
 X0.124900 Y-2.056650
 X0.109400 Y-2.062650
 X0.108150
 X0.103150 Y-2.063900
 X0.098150
 X0.096900 Y-2.063400
 X0.095400
 X0.094150 Y-2.062900
 X0.092650
 X0.091400 Y-2.062400
 X0.089900
 X0.077150 Y-2.057650
 X0.065900 Y-2.049900
 X0.053400 Y-2.034900
 X0.048150 Y-2.023150
 Y-2.021900
 X0.047400 Y-2.019900
 Y-2.018650
 X0.046900 Y-2.017650
 Y-2.016400
 X0.045900 Y-2.013150
 Y-2.006900
 X0.046150
 Y-2.005650
 X0.046400
 Y-2.004400
 X0.046650
 Y-2.003150
 X0.046900
 Y-2.001900
 X0.047150
 Y-2.000650
 X0.047650 Y-1.999400
 Y-1.998150
 X0.052400 Y-1.986150
 X0.060900 Y-1.974400
 X0.076150 Y-1.962150
 X0.087900 Y-1.957400
 X0.089150
 X0.090150 Y-1.956900
 X0.091400
 X0.098150 Y-1.955150
 X0.101400
 X0.106400 Y-1.956400
 X0.107650
 X0.124150 Y-1.962150
 X0.134900
 X0.174150 Y-1.922900
 Y-1.913900
 X0.174400
 Y-1.911150
 X0.174650
 Y-1.908400
 X0.174900
 Y-1.905650
 X0.175150
 Y-1.904400
 X0.184900 Y-1.882900
 Y-1.872150
 X0.033150 Y-1.720150
 X0.022400
 X0.020650 Y-1.720900
 Y-2.629400
 X0.315150
 X0.315900 Y-2.627400
 Y-2.616650
 X0.313650 Y-2.613150
 X0.306150 Y-2.609650
 X0.311650 Y-2.603900
 X0.317900 Y-2.605650
 X0.319400
 Y-2.605900
 X0.321150
 Y-2.606150
 X0.338900
 Y-2.605900
 X0.340650
 Y-2.605650
 X0.342150
 X0.348650 Y-2.603900
 X0.353900 Y-2.609400
 X0.346900 Y-2.613150
 X0.344650 Y-2.616650
 Y-2.627400
 X0.345400 Y-2.629400
 X3.849900
 Y-0.020150
 X0.020650
 Y-0.022400
G00 Z0.039370
 X2.617150 Y-0.120650
F3.937008
G01 Z-0.003937
 X2.608400 Y-0.126400
 X2.603150 Y-0.132400
 X2.596650 Y-0.147650
 Y-0.149150
 X2.596400
 Y-0.150900
 X2.596150
 Y-0.168650
 X2.596400
 Y-0.170400
 X2.596650
 Y-0.171900
 X2.603150 Y-0.187150
 X2.615650 Y-0.198150
 Y-0.321400
 X2.603150 Y-0.332400
 X2.596650 Y-0.347650
 Y-0.349150
 X2.596400
 Y-0.350900
 X2.596150
 Y-0.368650
 X2.596400
 Y-0.370400
 X2.596650
 Y-0.371900
 X2.600400 Y-0.382400
 X2.606650 Y-0.391400
 X2.614150 Y-0.397650
 X2.626650 Y-0.402900
 X2.627900
 Y-0.403150
 X2.629400
 Y-0.403400
 X2.631150
 Y-0.403650
 X2.648900
 Y-0.403400
 X2.650650
 Y-0.403150
 X2.652150
 X2.662650 Y-0.399400
 X2.671650 Y-0.393150
 X2.677900 Y-0.385650
 X2.683400 Y-0.371900
 Y-0.370400
 X2.683650
 Y-0.368650
 X2.683900
 Y-0.350900
 X2.683650
 Y-0.349150
 X2.683400
 Y-0.347650
 X2.676900 Y-0.332400
 X2.664150 Y-0.321150
 Y-0.198400
 X2.676900 Y-0.187150
 X2.683400 Y-0.171900
 Y-0.170400
 X2.683650
 Y-0.168650
 X2.683900
 Y-0.150900
 X2.683650
 Y-0.149150
 X2.683400
 Y-0.147650
 X2.677900 Y-0.133900
 X2.671650 Y-0.126400
 X2.662650 Y-0.120150
 X2.652150 Y-0.116400
 X2.650650
 Y-0.116150
 X2.648900
 Y-0.115900
 X2.631150
 Y-0.116150
 X2.629400
 Y-0.116400
 X2.627900
 Y-0.116650
 X2.626650
 X2.617150 Y-0.120650
G00 Z0.039370
 X2.517150
F3.937008
G01 Z-0.003937
 X2.508400 Y-0.126400
 X2.503150 Y-0.132400
 X2.496650 Y-0.147650
 Y-0.149150
 X2.496400
 Y-0.150900
 X2.496150
 Y-0.168650
 X2.496400
 Y-0.170400
 X2.496650
 Y-0.171900
 X2.503150 Y-0.187150
 X2.515650 Y-0.198150
 Y-0.321400
 X2.503150 Y-0.332400
 X2.496650 Y-0.347650
 Y-0.349150
 X2.496400
 Y-0.350900
 X2.496150
 Y-0.368650
 X2.496400
 Y-0.370400
 X2.496650
 Y-0.371900
 X2.500400 Y-0.382400
 X2.506650 Y-0.391400
 X2.514150 Y-0.397650
 X2.526650 Y-0.402900
 X2.527900
 Y-0.403150
 X2.529400
 Y-0.403400
 X2.531150
 Y-0.403650
 X2.548900
 Y-0.403400
 X2.550650
 Y-0.403150
 X2.552150
 Y-0.402900
 X2.553400
 X2.565900 Y-0.397650
 X2.573400 Y-0.391400
 X2.579650 Y-0.382400
 X2.583400 Y-0.371900
 Y-0.370400
 X2.583650
 Y-0.368650
 X2.583900
 Y-0.350900
 X2.583650
 Y-0.349150
 X2.583400
 Y-0.347650
 X2.576900 Y-0.332400
 X2.564150 Y-0.321150
 Y-0.198400
 X2.576900 Y-0.187150
 X2.583400 Y-0.171900
 Y-0.170400
 X2.583650
 Y-0.168650
 X2.583900
 Y-0.150900
 X2.583650
 Y-0.149150
 X2.583400
 Y-0.147650
 X2.579650 Y-0.137150
 X2.573400 Y-0.128150
 X2.565900 Y-0.121900
 X2.553400 Y-0.116650
 X2.552150
 Y-0.116400
 X2.550650
 Y-0.116150
 X2.548900
 Y-0.115900
 X2.531150
 Y-0.116150
 X2.529400
 Y-0.116400
 X2.527900
 Y-0.116650
 X2.526650
 X2.517150 Y-0.120650
G00 Z0.039370
 X2.417150
F3.937008
G01 Z-0.003937
 X2.408400 Y-0.126400
 X2.403150 Y-0.132400
 X2.396650 Y-0.147650
 Y-0.149150
 X2.396400
 Y-0.150900
 X2.396150
 Y-0.168650
 X2.396400
 Y-0.170400
 X2.396650
 Y-0.171900
 X2.403150 Y-0.187150
 X2.415650 Y-0.198150
 Y-0.321400
 X2.403150 Y-0.332400
 X2.396650 Y-0.347650
 Y-0.349150
 X2.396400
 Y-0.350900
 X2.396150
 Y-0.368650
 X2.396400
 Y-0.370400
 X2.396650
 Y-0.371900
 X2.400400 Y-0.382400
 X2.406650 Y-0.391400
 X2.414150 Y-0.397650
 X2.426650 Y-0.402900
 X2.427900
 Y-0.403150
 X2.429400
 Y-0.403400
 X2.431150
 Y-0.403650
 X2.448900
 Y-0.403400
 X2.450650
 Y-0.403150
 X2.452150
 Y-0.402900
 X2.453400
 X2.465900 Y-0.397650
 X2.473400 Y-0.391400
 X2.479650 Y-0.382400
 X2.483400 Y-0.371900
 Y-0.370400
 X2.483650
 Y-0.368650
 X2.483900
 Y-0.350900
 X2.483650
 Y-0.349150
 X2.483400
 Y-0.347650
 X2.476900 Y-0.332400
 X2.464150 Y-0.321150
 Y-0.198400
 X2.476900 Y-0.187150
 X2.483400 Y-0.171900
 Y-0.170400
 X2.483650
 Y-0.168650
 X2.483900
 Y-0.150900
 X2.483650
 Y-0.149150
 X2.483400
 Y-0.147650
 X2.479650 Y-0.137150
 X2.473400 Y-0.128150
 X2.465900 Y-0.121900
 X2.453400 Y-0.116650
 X2.452150
 Y-0.116400
 X2.450650
 Y-0.116150
 X2.448900
 Y-0.115900
 X2.431150
 Y-0.116150
 X2.429400
 Y-0.116400
 X2.427900
 Y-0.116650
 X2.426650
 X2.417150 Y-0.120650
G00 Z0.039370
 X2.136150
F3.937008
G01 Z-0.003937
 Y-0.203650
 X2.165650
 Y-0.436150
 X2.165900
 Y-0.438150
 X2.171400 Y-0.448650
 X2.255400 Y-0.532650
 X2.272900 Y-0.549900
 X2.281650 Y-0.553900
 X2.283650
 Y-0.554150
 X2.657150
 X2.725650 Y-0.622650
 Y-0.667150
 X2.627150 Y-0.765650
 X2.603650
 Y-0.765900
 X2.601650
 X2.591150 Y-0.771400
 X2.287150 Y-1.075650
 X2.058650
 X2.047400 Y-1.062900
 X2.033400 Y-1.056650
 X2.032150
 Y-1.056400
 X2.030650
 Y-1.056150
 X2.028900
 Y-1.055900
 X2.011150
 Y-1.056150
 X2.009400
 Y-1.056400
 X2.007900
 Y-1.056650
 X2.006650
 X1.992650 Y-1.062900
 X1.981400 Y-1.075650
 X1.863650
 Y-1.075900
 X1.861650
 X1.851150 Y-1.081400
 X1.757150 Y-1.175650
 X1.712400
 X1.706150 Y-1.169400
 X1.694900 Y-1.164650
 X1.692400
 Y-1.164400
 X1.689900
 Y-1.164150
 X1.650150
 Y-1.164400
 X1.647650
 Y-1.164650
 X1.645150
 X1.633900 Y-1.169400
 X1.627650 Y-1.175650
 X1.563650
 Y-1.175900
 X1.561650
 X1.551150 Y-1.181400
 X1.457150 Y-1.275650
 X1.412400
 X1.406150 Y-1.269400
 X1.394900 Y-1.264650
 X1.392400
 Y-1.264400
 X1.389900
 Y-1.264150
 X1.350150
 Y-1.264400
 X1.347650
 Y-1.264650
 X1.345150
 X1.335650 Y-1.268400
 X1.329400 Y-1.273150
 X1.320900 Y-1.288900
 Y-1.291400
 X1.320650
 Y-1.293900
 X1.320400
 Y-1.305650
 X1.320650
 Y-1.308150
 X1.320900
 Y-1.310650
 X1.324650 Y-1.320150
 X1.329650 Y-1.326650
 X1.338900 Y-1.332900
 X1.345650 Y-1.334900
 Y-1.364650
 X1.338900 Y-1.366650
 X1.329650 Y-1.372900
 X1.324650 Y-1.379400
 X1.320900 Y-1.388900
 Y-1.391400
 X1.320650
 Y-1.393900
 X1.320400
 Y-1.405650
 X1.320650
 Y-1.408150
 X1.320900
 Y-1.410650
 X1.324650 Y-1.420150
 X1.329150 Y-1.426150
 X1.335650 Y-1.431150
 X1.345150 Y-1.434900
 X1.347650
 Y-1.435150
 X1.350150
 Y-1.435400
 X1.389900
 Y-1.435150
 X1.392400
 Y-1.434900
 X1.394900
 X1.406150 Y-1.430150
 X1.412150 Y-1.424150
 X1.417150
 X1.455650 Y-1.462650
 Y-1.917150
 X1.397150 Y-1.975650
 X1.312650
 X1.046400 Y-1.709400
 X1.060900 Y-1.701150
 X1.069150 Y-1.685650
 Y-1.683150
 X1.069400
 Y-1.680650
 X1.069650
 Y-1.668900
 X1.069400
 Y-1.666400
 X1.069150
 Y-1.663900
 X1.065400 Y-1.654400
 X1.060650 Y-1.648150
 X1.044900 Y-1.639650
 X1.042400
 Y-1.639400
 X1.039900
 Y-1.639150
 X1.000150
 Y-1.639400
 X0.997650
 Y-1.639650
 X0.995150
 X0.985650 Y-1.643400
 X0.979900 Y-1.647900
 X0.944150 Y-1.612150
 Y-0.713400
 X0.956900 Y-0.702150
 X0.963150 Y-0.688150
 Y-0.686900
 X0.963400
 Y-0.685400
 X0.963650
 Y-0.683650
 X0.963900
 Y-0.665900
 X0.963650
 Y-0.664150
 X0.963400
 Y-0.662650
 X0.963150
 Y-0.661400
 X0.956900 Y-0.647400
 X0.944150 Y-0.636150
 Y-0.523650
 X0.948900
 Y-0.523400
 X0.950650
 Y-0.523150
 X0.952150
 Y-0.522900
 X0.953400
 X0.965900 Y-0.517650
 X0.973400 Y-0.511400
 X0.979650 Y-0.502400
 X0.983400 Y-0.491900
 Y-0.490400
 X0.983650
 Y-0.488650
 X0.983900
 Y-0.470900
 X0.983650
 Y-0.469150
 X0.983400
 Y-0.467650
 X0.979650 Y-0.457150
 X0.973400 Y-0.448150
 X0.965900 Y-0.441900
 X0.953400 Y-0.436650
 X0.952150
 Y-0.436400
 X0.950650
 Y-0.436150
 X0.948900
 Y-0.435900
 X0.931150
 Y-0.436150
 X0.929400
 Y-0.436400
 X0.927900
 Y-0.436650
 X0.926650
 X0.912650 Y-0.442900
 X0.901400 Y-0.455650
 X0.862650
 X0.779650 Y-0.372650
 Y-0.330150
 X0.700400
 Y-0.345650
 X0.613650
 Y-0.345900
 X0.611650
 X0.601150 Y-0.351400
 X0.106150 Y-0.846400
 X0.096650 Y-0.856400
 X0.093400 Y-0.864150
 Y-0.866150
 X0.093150
 Y-1.133650
 X0.093400
 Y-1.135650
 X0.098900 Y-1.146150
 X0.391650 Y-1.438650
 X0.382150 Y-1.448900
 X0.376900 Y-1.461400
 Y-1.462650
 X0.376650
 Y-1.464150
 X0.376400
 Y-1.465900
 X0.376150
 Y-1.483650
 X0.376400
 Y-1.485400
 X0.376650
 Y-1.486900
 X0.376900
 Y-1.488150
 X0.383150 Y-1.502150
 X0.395650 Y-1.513150
 Y-1.582650
 X0.389650 Y-1.588650
 X0.384900 Y-1.599900
 Y-1.602400
 X0.384650
 Y-1.604900
 X0.384400
 Y-1.644650
 X0.384650
 Y-1.647150
 X0.384900
 Y-1.649650
 X0.388650 Y-1.659150
 X0.393150 Y-1.665150
 X0.399650 Y-1.670150
 X0.409150 Y-1.673900
 X0.411650
 Y-1.674150
 X0.414150
 Y-1.674400
 X0.425900
 Y-1.674150
 X0.428400
 Y-1.673900
 X0.430900
 X0.440400 Y-1.670150
 X0.446650 Y-1.665400
 X0.455150 Y-1.649650
 Y-1.647150
 X0.455400
 Y-1.644650
 X0.455650
 Y-1.604900
 X0.455400
 Y-1.602400
 X0.455150
 Y-1.599900
 X0.450400 Y-1.588650
 X0.444150 Y-1.582400
 Y-1.513400
 X0.456900 Y-1.502150
 X0.463150 Y-1.488150
 Y-1.486900
 X0.463400
 Y-1.485400
 X0.463650
 Y-1.483650
 X0.463900
 Y-1.465900
 X0.463650
 Y-1.464150
 X0.463400
 Y-1.462650
 X0.463150
 Y-1.461400
 X0.456900 Y-1.447400
 X0.444150 Y-1.436150
 Y-1.423650
 X0.443900
 Y-1.421650
 X0.438400 Y-1.411150
 X0.141650 Y-1.114650
 Y-0.885150
 X0.632650 Y-0.394150
 X0.700400
 Y-0.409400
 X0.742400
 X0.831150 Y-0.498400
 X0.841650 Y-0.503900
 X0.843650
 Y-0.504150
 X0.895650
 Y-0.636400
 X0.883150 Y-0.647400
 X0.876900 Y-0.661400
 Y-0.662650
 X0.876650
 Y-0.664150
 X0.876400
 Y-0.665900
 X0.876150
 Y-0.683650
 X0.876400
 Y-0.685400
 X0.876650
 Y-0.686900
 X0.876900
 Y-0.688150
 X0.883150 Y-0.702150
 X0.895650 Y-0.713150
 Y-1.631150
 X0.895900
 Y-1.633150
 X0.901400 Y-1.643650
 X0.951150 Y-1.693400
 X0.961650 Y-1.698900
 X0.963650
 Y-1.699150
 X0.977900
 X0.983900 Y-1.705150
 X0.995650 Y-1.709900
 Y-1.726150
 X0.995900
 Y-1.728150
 X1.001400 Y-1.738650
 X1.281150 Y-2.018400
 X1.291650 Y-2.023900
 X1.293650
 Y-2.024150
 X1.416150
 Y-2.023900
 X1.418150
 X1.429400 Y-2.017650
 X1.498400 Y-1.948650
 X1.503900 Y-1.938150
 Y-1.936150
 X1.504150
 Y-1.443650
 X1.503900
 Y-1.441650
 X1.498150 Y-1.430900
 X1.448650 Y-1.381400
 X1.438150 Y-1.375900
 X1.436150
 Y-1.375650
 X1.412400
 X1.406150 Y-1.369400
 X1.394150 Y-1.364650
 Y-1.334900
 X1.406150 Y-1.330150
 X1.412150 Y-1.324150
 X1.476150
 Y-1.323900
 X1.478150
 X1.488650 Y-1.318400
 X1.582650 Y-1.224150
 X1.627900
 X1.633900 Y-1.230150
 X1.645150 Y-1.234900
 X1.647650
 Y-1.235150
 X1.650150
 Y-1.235400
 X1.689900
 Y-1.235150
 X1.692400
 Y-1.234900
 X1.694900
 X1.706150 Y-1.230150
 X1.712150 Y-1.224150
 X1.776150
 Y-1.223900
 X1.778150
 X1.788650 Y-1.218400
 X1.882650 Y-1.124150
 X1.981650
 X1.992650 Y-1.136650
 X2.006650 Y-1.142900
 X2.007900
 Y-1.143150
 X2.009400
 Y-1.143400
 X2.011150
 Y-1.143650
 X2.028900
 Y-1.143400
 X2.030650
 Y-1.143150
 X2.032150
 Y-1.142900
 X2.033400
 X2.047400 Y-1.136650
 X2.058400 Y-1.124150
 X2.127150
 X2.255650 Y-1.252650
 Y-1.707150
 X2.157150 Y-1.805650
 X2.109650
 Y-1.800150
 X2.030400
 Y-1.879400
 X2.109650
 Y-1.864150
 X2.166150
 Y-1.863900
 X2.168150
 X2.175900 Y-1.860650
 X2.182650 Y-1.854150
 X2.551650
 X2.562650 Y-1.866650
 X2.576650 Y-1.872900
 X2.577900
 Y-1.873150
 X2.579400
 Y-1.873400
 X2.581150
 Y-1.873650
 X2.598900
 Y-1.873400
 X2.600650
 Y-1.873150
 X2.602150
 Y-1.872900
 X2.603400
 X2.615900 Y-1.867650
 X2.622650 Y-1.862150
 X2.627900 Y-1.855650
 X2.633150 Y-1.843150
 Y-1.841900
 X2.633400
 Y-1.840400
 X2.633650
 Y-1.838650
 X2.633900
 Y-1.820900
 X2.633650
 Y-1.819150
 X2.633400
 Y-1.817650
 X2.633150
 Y-1.816400
 X2.627900 Y-1.803900
 X2.622650 Y-1.797400
 X2.615900 Y-1.791900
 X2.603400 Y-1.786650
 X2.602150
 Y-1.786400
 X2.600650
 Y-1.786150
 X2.598900
 Y-1.785900
 X2.581150
 Y-1.786150
 X2.579400
 Y-1.786400
 X2.577900
 Y-1.786650
 X2.576650
 X2.562650 Y-1.792900
 X2.551400 Y-1.805650
 X2.231400
 X2.298400 Y-1.738650
 X2.303900 Y-1.728150
 Y-1.726150
 X2.304150
 Y-1.233650
 X2.303900
 Y-1.231650
 X2.298400 Y-1.221150
 X2.201400 Y-1.124150
 X2.306150
 Y-1.123900
 X2.308150
 X2.318650 Y-1.118400
 X2.622650 Y-0.814150
 X2.646150
 Y-0.813900
 X2.648150
 X2.658650 Y-0.808400
 X2.768400 Y-0.698650
 X2.773900 Y-0.688150
 Y-0.686150
 X2.774150
 Y-0.603650
 X2.773900
 Y-0.601650
 X2.768400 Y-0.591150
 X2.689900 Y-0.512650
 X2.678150 Y-0.505900
 X2.676150
 Y-0.505650
 X2.302650
 X2.214150 Y-0.417150
 Y-0.203650
 X2.223900
 Y-0.115900
 X2.136150
 Y-0.120650
G00 Z0.039370
 X2.057150
F3.937008
G01 Z-0.003937
 X2.048400 Y-0.126400
 X2.043150 Y-0.132400
 X2.036650 Y-0.147650
 Y-0.149150
 X2.036400
 Y-0.150900
 X2.036150
 Y-0.168650
 X2.036400
 Y-0.170400
 X2.036650
 Y-0.171900
 X2.043150 Y-0.187150
 X2.055650 Y-0.198150
 Y-0.217150
 X2.001400 Y-0.271150
 X1.995900 Y-0.281650
 Y-0.283650
 X1.995650
 Y-0.291400
 X1.983150 Y-0.302400
 X1.976650 Y-0.317650
 Y-0.319150
 X1.976400
 Y-0.320900
 X1.976150
 Y-0.338650
 X1.976400
 Y-0.340400
 X1.976650
 Y-0.341900
 X1.983150 Y-0.357150
 X1.995650 Y-0.368150
 Y-0.401400
 X1.983150 Y-0.412400
 X1.976650 Y-0.427650
 Y-0.429150
 X1.976400
 Y-0.430900
 X1.976150
 Y-0.448650
 X1.976400
 Y-0.450400
 X1.976650
 Y-0.451900
 X1.980400 Y-0.462400
 X1.986650 Y-0.471400
 X1.994150 Y-0.477650
 X2.006650 Y-0.482900
 X2.007900
 Y-0.483150
 X2.009400
 Y-0.483400
 X2.011150
 Y-0.483650
 X2.028900
 Y-0.483400
 X2.030650
 Y-0.483150
 X2.032150
 Y-0.482900
 X2.033400
 X2.045900 Y-0.477650
 X2.053400 Y-0.471400
 X2.059650 Y-0.462400
 X2.063400 Y-0.451900
 Y-0.450400
 X2.063650
 Y-0.448650
 X2.063900
 Y-0.430900
 X2.063650
 Y-0.429150
 X2.063400
 Y-0.427650
 X2.056900 Y-0.412400
 X2.044150 Y-0.401150
 Y-0.368400
 X2.056900 Y-0.357150
 X2.063400 Y-0.341900
 Y-0.340400
 X2.063650
 Y-0.338650
 X2.063900
 Y-0.320900
 X2.063650
 Y-0.319150
 X2.063400
 Y-0.317650
 X2.057900 Y-0.303900
 X2.050900 Y-0.295900
 X2.098400 Y-0.248650
 X2.103900 Y-0.238150
 Y-0.236150
 X2.104150
 Y-0.198400
 X2.116900 Y-0.187150
 X2.123400 Y-0.171900
 Y-0.170400
 X2.123650
 Y-0.168650
 X2.123900
 Y-0.150900
 X2.123650
 Y-0.149150
 X2.123400
 Y-0.147650
 X2.119650 Y-0.137150
 X2.113400 Y-0.128150
 X2.105900 Y-0.121900
 X2.093400 Y-0.116650
 X2.092150
 Y-0.116400
 X2.090650
 Y-0.116150
 X2.088900
 Y-0.115900
 X2.071150
 Y-0.116150
 X2.069400
 Y-0.116400
 X2.067900
 X2.057150 Y-0.120650
G00 Z0.039370
 X1.957150
F3.937008
G01 Z-0.003937
 X1.948400 Y-0.126400
 X1.943150 Y-0.132400
 X1.936650 Y-0.147650
 Y-0.149150
 X1.936400
 Y-0.150900
 X1.936150
 Y-0.168650
 X1.936400
 Y-0.170400
 X1.936650
 Y-0.171900
 X1.942150 Y-0.185650
 X1.949150 Y-0.193650
 X1.851400 Y-0.291150
 X1.845900 Y-0.301650
 Y-0.303650
 X1.845650
 Y-0.361400
 X1.833150 Y-0.372400
 X1.826650 Y-0.387650
 Y-0.389150
 X1.826400
 Y-0.390900
 X1.826150
 Y-0.408650
 X1.826400
 Y-0.410400
 X1.826650
 Y-0.411900
 X1.830400 Y-0.422400
 X1.836650 Y-0.431400
 X1.844150 Y-0.437650
 X1.856650 Y-0.442900
 X1.857900
 Y-0.443150
 X1.859400
 Y-0.443400
 X1.861150
 Y-0.443650
 X1.878900
 Y-0.443400
 X1.880650
 Y-0.443150
 X1.882150
 Y-0.442900
 X1.883400
 X1.895900 Y-0.437650
 X1.903400 Y-0.431400
 X1.909650 Y-0.422400
 X1.913400 Y-0.411900
 Y-0.410400
 X1.913650
 Y-0.408650
 X1.913900
 Y-0.390900
 X1.913650
 Y-0.389150
 X1.913400
 Y-0.387650
 X1.906900 Y-0.372400
 X1.894150 Y-0.361150
 Y-0.322650
 X1.998400 Y-0.218650
 X2.003900 Y-0.208150
 Y-0.206150
 X2.004150
 Y-0.198400
 X2.016900 Y-0.187150
 X2.023400 Y-0.171900
 Y-0.170400
 X2.023650
 Y-0.168650
 X2.023900
 Y-0.150900
 X2.023650
 Y-0.149150
 X2.023400
 Y-0.147650
 X2.019650 Y-0.137150
 X2.013400 Y-0.128150
 X2.005900 Y-0.121900
 X1.993400 Y-0.116650
 X1.992150
 Y-0.116400
 X1.990650
 Y-0.116150
 X1.988900
 Y-0.115900
 X1.971150
 Y-0.116150
 X1.969400
 Y-0.116400
 X1.967900
 Y-0.116650
 X1.966650
 X1.957150 Y-0.120650
G00 Z0.039370
 X3.363900 Y-0.164400
F3.937008
G01 Z-0.003937
 X3.343900 Y-0.223150
 Y-0.224650
 X3.343650
 Y-0.236150
 X3.343900
 Y-0.237650
 X3.350900 Y-0.244650
 X3.352400
 Y-0.244900
 X3.381150
 Y-0.262400
 X3.381400
 Y-0.263900
 X3.388400 Y-0.270900
 X3.389900
 Y-0.271150
 X3.401400
 Y-0.270900
 X3.402900
 X3.409900 Y-0.263900
 Y-0.262400
 X3.410150
 Y-0.244900
 X3.412650
 Y-0.244650
 X3.414150
 X3.421150 Y-0.237650
 Y-0.236150
 X3.421400
 Y-0.224650
 X3.421150
 Y-0.223150
 X3.414150 Y-0.216150
 X3.412650
 Y-0.215900
 X3.410150
 Y-0.198400
 X3.409900
 Y-0.196900
 X3.402900 Y-0.189900
 X3.401400
 Y-0.189650
 X3.389900
 Y-0.189900
 X3.388400
 X3.391150 Y-0.181400
 Y-0.179900
 X3.391400
 Y-0.168400
 X3.391150
 Y-0.166900
 X3.384150 Y-0.159900
 X3.382650
 Y-0.159650
 X3.371150
 Y-0.159900
 X3.369650
 X3.363900 Y-0.164400
G00 Z0.039370
 X3.292650 Y-0.168150
F3.937008
G01 Z-0.003937
 X3.285900 Y-0.178400
 X3.272400 Y-0.187900
 X3.268900 Y-0.193150
 Y-0.194650
 X3.268650
 Y-0.206150
 X3.268900
 Y-0.207650
 X3.275900 Y-0.214650
 X3.277400
 Y-0.214900
 X3.288900
 Y-0.214650
 X3.290400
 X3.291150 Y-0.214400
 Y-0.242150
 X3.277400
 Y-0.242400
 X3.275900
 X3.268900 Y-0.249400
 Y-0.250900
 X3.268650
 Y-0.262400
 X3.268900
 Y-0.263900
 X3.275900 Y-0.270900
 X3.277400
 Y-0.271150
 X3.333900
 Y-0.270900
 X3.335400
 X3.342400 Y-0.263900
 Y-0.262400
 X3.342650
 Y-0.250900
 X3.342400
 Y-0.249400
 X3.335400 Y-0.242400
 X3.333900
 Y-0.242150
 X3.320150
 Y-0.172150
 X3.319900
 Y-0.170650
 X3.312900 Y-0.163650
 X3.311400
 Y-0.163400
 X3.299900
 Y-0.163650
 X3.298400
 X3.292650 Y-0.168150
G00 Z0.039370
 X3.210650
F3.937008
G01 Z-0.003937
 X3.202150 Y-0.176150
 X3.193900 Y-0.200650
 Y-0.202150
 X3.193650
 Y-0.232400
 X3.193900
 Y-0.233900
 X3.197900 Y-0.249650
 X3.203150 Y-0.259900
 X3.209400 Y-0.265900
 X3.219650 Y-0.270900
 X3.221150
 Y-0.271150
 X3.240150
 Y-0.270900
 X3.241650
 X3.252650 Y-0.265400
 X3.258150 Y-0.259900
 X3.263400 Y-0.249650
 X3.267400 Y-0.233900
 Y-0.232400
 X3.267650
 Y-0.202150
 X3.267400
 Y-0.200650
 X3.263400 Y-0.184900
 X3.258150 Y-0.174650
 X3.251150 Y-0.168150
 X3.241650 Y-0.163650
 X3.240150
 Y-0.163400
 X3.221150
 Y-0.163650
 X3.219650
 X3.210650 Y-0.168150
G00 Z0.039370
 X3.128150
F3.937008
G01 Z-0.003937
 X3.124650 Y-0.170650
 X3.121900 Y-0.180650
 Y-0.182150
 X3.121400 Y-0.182900
 Y-0.184650
 X3.121150
 Y-0.186400
 X3.120900
 Y-0.188150
 X3.120650
 Y-0.195400
 X3.125900 Y-0.199650
 X3.127400
 Y-0.199900
 X3.138900
 Y-0.199650
 X3.140400
 X3.151150 Y-0.192400
 X3.156400
 X3.161650 Y-0.195650
 X3.161150 Y-0.201900
 X3.115150 Y-0.249400
 Y-0.250900
 X3.114900
 Y-0.262400
 X3.115150
 Y-0.263900
 X3.122150 Y-0.270900
 X3.123650
 Y-0.271150
 X3.183900
 Y-0.270900
 X3.185400
 X3.192400 Y-0.263900
 Y-0.262400
 X3.192650
 Y-0.250900
 X3.192400
 Y-0.249400
 X3.185400 Y-0.242400
 X3.183900
 Y-0.242150
 X3.167150
 X3.186900 Y-0.222400
 X3.192400 Y-0.207650
 Y-0.206150
 X3.192650
 Y-0.187150
 X3.192400
 Y-0.185650
 X3.185150 Y-0.172900
 X3.170400 Y-0.163650
 X3.168900
 Y-0.163400
 X3.138650
 Y-0.163650
 X3.137150
 X3.128150 Y-0.168150
G00 Z0.039370
 X3.097650
F3.937008
G01 Z-0.003937
 X3.084150 Y-0.206650
 X3.071650 Y-0.168650
 X3.065400 Y-0.163650
 X3.063900
 Y-0.163400
 X3.052400
 Y-0.163650
 X3.050900
 X3.043900 Y-0.170650
 Y-0.172150
 X3.043650
 Y-0.174650
 X3.044900 Y-0.178900
 Y-0.180150
 X3.048150 Y-0.189150
 Y-0.190900
 X3.048400
 Y-0.192650
 X3.048650
 Y-0.194400
 X3.048900
 Y-0.196150
 X3.049150
 Y-0.197900
 X3.049400
 Y-0.199650
 X3.049650
 Y-0.201400
 X3.049900
 Y-0.203150
 X3.070900 Y-0.265900
 X3.077150 Y-0.270900
 X3.078650
 Y-0.271150
 X3.090150
 Y-0.270900
 X3.091650
 X3.098400 Y-0.264650
 X3.120900 Y-0.197150
 Y-0.195400
 X3.120650
 Y-0.188150
 X3.120900
 Y-0.186400
 X3.121150
 Y-0.184650
 X3.121400
 Y-0.182900
 X3.121900 Y-0.182150
 Y-0.180650
 X3.124650 Y-0.171400
 Y-0.169900
 X3.117900 Y-0.163650
 X3.116400
 Y-0.163400
 X3.104900
 Y-0.163650
 X3.103400
 X3.097650 Y-0.168150
G00 Z0.039370
 X2.977650
F3.937008
G01 Z-0.003937
 X2.976400 Y-0.170650
 Y-0.172150
 X2.976150
 Y-0.262400
 X2.976400
 Y-0.263900
 X2.983400 Y-0.270900
 X2.984900
 Y-0.271150
 X2.996400
 Y-0.270900
 X2.997900
 X3.004900 Y-0.263900
 Y-0.262400
 X3.005150
 Y-0.241650
 X3.022900 Y-0.267150
 X3.028400 Y-0.270900
 X3.029900
 Y-0.271150
 X3.041400
 Y-0.270900
 X3.042900
 X3.049900 Y-0.263900
 Y-0.262400
 X3.050150
 Y-0.250900
 X3.049900
 Y-0.249400
 X3.036400 Y-0.229400
 X3.044400 Y-0.222400
 X3.049900 Y-0.211400
 Y-0.209900
 X3.050150
 Y-0.203150
 X3.049900
 Y-0.201400
 X3.049650
 Y-0.199650
 X3.049400
 Y-0.197900
 X3.049150
 Y-0.196150
 X3.048900
 Y-0.194400
 X3.048650
 Y-0.192650
 X3.048400
 Y-0.190900
 X3.048150
 Y-0.189150
 X3.044900 Y-0.180150
 Y-0.178900
 X3.043650 Y-0.173900
 X3.038900 Y-0.169150
 X3.027900 Y-0.163650
 X3.026400
 Y-0.163400
 X2.984900
 Y-0.163650
 X2.983400
 X2.977650 Y-0.168150
G00 Z0.039370
 X3.588900 Y-0.169900
F3.937008
G01 Z-0.003937
 X3.570650 Y-0.178650
 X3.554900 Y-0.192650
 X3.542650 Y-0.211650
 X3.536900 Y-0.229150
 Y-0.230650
 X3.536650
 Y-0.232400
 X3.536400
 Y-0.233900
 X3.536150
 Y-0.235650
 X3.535900
 Y-0.237650
 X3.535650
 Y-0.242650
 X3.535400
 Y-0.256900
 X3.535650
 Y-0.261900
 X3.535900
 Y-0.263900
 X3.536150
 Y-0.265650
 X3.536400
 Y-0.267150
 X3.536650
 Y-0.268900
 X3.536900
 Y-0.270400
 X3.545400 Y-0.293400
 X3.557900 Y-0.310150
 X3.576400 Y-0.324400
 X3.599400 Y-0.332900
 X3.600900
 Y-0.333150
 X3.602650
 Y-0.333400
 X3.604150
 Y-0.333650
 X3.605900
 Y-0.333900
 X3.607900
 Y-0.334150
 X3.612900
 Y-0.334400
 X3.627150
 Y-0.334150
 X3.632150
 Y-0.333900
 X3.634150
 Y-0.333650
 X3.635900
 Y-0.333400
 X3.637400
 Y-0.333150
 X3.639150
 Y-0.332900
 X3.640650
 X3.663650 Y-0.324400
 X3.679900 Y-0.312400
 X3.694650 Y-0.293400
 X3.703150 Y-0.270650
 Y-0.268900
 X3.703400
 Y-0.267150
 X3.703650
 Y-0.265650
 X3.703900
 Y-0.263900
 X3.704150
 Y-0.261900
 X3.704400
 Y-0.256900
 X3.704650
 Y-0.242650
 X3.704400
 Y-0.237650
 X3.704150
 Y-0.235650
 X3.703900
 Y-0.233900
 X3.703650
 Y-0.232400
 X3.703400
 Y-0.230650
 X3.703150
 Y-0.228900
 X3.694650 Y-0.206150
 X3.679900 Y-0.187150
 X3.663650 Y-0.175150
 X3.640650 Y-0.166650
 X3.639150
 Y-0.166400
 X3.637400
 Y-0.166150
 X3.635900
 Y-0.165900
 X3.634150
 Y-0.165650
 X3.632150
 Y-0.165400
 X3.627150
 Y-0.165150
 X3.612900
 Y-0.165400
 X3.607900
 Y-0.165650
 X3.605900
 Y-0.165900
 X3.604150
 Y-0.166150
 X3.602650
 Y-0.166400
 X3.600900
 Y-0.166650
 X3.599400
 X3.588900 Y-0.169900
G00 Z0.039370
 X0.188900
F3.937008
G01 Z-0.003937
 X0.170650 Y-0.178650
 X0.154900 Y-0.192650
 X0.142650 Y-0.211650
 X0.136900 Y-0.229150
 Y-0.230650
 X0.136650
 Y-0.232400
 X0.136400
 Y-0.233900
 X0.136150
 Y-0.235650
 X0.135900
 Y-0.237650
 X0.135650
 Y-0.242650
 X0.135400
 Y-0.256900
 X0.135650
 Y-0.261900
 X0.135900
 Y-0.263900
 X0.136150
 Y-0.265650
 X0.136400
 Y-0.267150
 X0.136650
 Y-0.268900
 X0.136900
 Y-0.270400
 X0.145400 Y-0.293400
 X0.158150 Y-0.310400
 X0.176400 Y-0.324400
 X0.199400 Y-0.332900
 X0.200900
 Y-0.333150
 X0.202650
 Y-0.333400
 X0.204150
 Y-0.333650
 X0.205900
 Y-0.333900
 X0.207900
 Y-0.334150
 X0.212900
 Y-0.334400
 X0.227150
 Y-0.334150
 X0.232150
 Y-0.333900
 X0.234150
 Y-0.333650
 X0.235900
 Y-0.333400
 X0.237400
 Y-0.333150
 X0.239150
 Y-0.332900
 X0.240650
 X0.263650 Y-0.324400
 X0.279900 Y-0.312400
 X0.294650 Y-0.293400
 X0.303150 Y-0.270650
 Y-0.268900
 X0.303400
 Y-0.267150
 X0.303650
 Y-0.265650
 X0.303900
 Y-0.263900
 X0.304150
 Y-0.261900
 X0.304400
 Y-0.256900
 X0.304650
 Y-0.242650
 X0.304400
 Y-0.237650
 X0.304150
 Y-0.235650
 X0.303900
 Y-0.233900
 X0.303650
 Y-0.232400
 X0.303400
 Y-0.230650
 X0.303150
 Y-0.228900
 X0.294650 Y-0.206150
 X0.279900 Y-0.187150
 X0.263650 Y-0.175150
 X0.240650 Y-0.166650
 X0.239150
 Y-0.166400
 X0.237400
 Y-0.166150
 X0.235900
 Y-0.165900
 X0.234150
 Y-0.165650
 X0.232150
 Y-0.165400
 X0.227150
 Y-0.165150
 X0.212900
 Y-0.165400
 X0.207900
 Y-0.165650
 X0.205900
 Y-0.165900
 X0.204150
 Y-0.166150
 X0.202650
 Y-0.166400
 X0.200900
 Y-0.166650
 X0.199400
 X0.188900 Y-0.169900
G00 Z0.039370
 X0.612650 Y-0.250400
F3.937008
G01 Z-0.003937
 X0.041400 Y-0.821150
 X0.035900 Y-0.831650
 Y-0.833650
 X0.035650
 Y-1.706150
 X0.035900
 Y-1.708150
 X0.041400 Y-1.718650
 X0.195650 Y-1.872650
 Y-1.882650
 X0.189650 Y-1.888650
 X0.184900 Y-1.899900
 Y-1.902400
 X0.184650
 Y-1.904900
 X0.184400
 Y-1.923400
 X0.131400 Y-1.976400
 X0.125900 Y-1.971900
 X0.113400 Y-1.966650
 X0.112150
 Y-1.966400
 X0.110650
 Y-1.966150
 X0.108900
 Y-1.965900
 X0.091150
 Y-1.966150
 X0.089400
 Y-1.966400
 X0.087900
 X0.077400 Y-1.970150
 X0.068400 Y-1.976400
 X0.062150 Y-1.983900
 X0.056900 Y-1.996400
 Y-1.997650
 X0.056650
 Y-1.999150
 X0.056400
 Y-2.000900
 X0.056150
 Y-2.018650
 X0.056400
 Y-2.020400
 X0.056650
 Y-2.021900
 X0.056900
 Y-2.023150
 X0.062150 Y-2.035650
 X0.068400 Y-2.043150
 X0.077400 Y-2.049400
 X0.087900 Y-2.053150
 X0.089400
 Y-2.053400
 X0.091150
 Y-2.053650
 X0.108900
 Y-2.053400
 X0.110650
 Y-2.053150
 X0.112150
 Y-2.052900
 X0.113400
 X0.127400 Y-2.046650
 X0.138400 Y-2.034150
 X0.141150
 Y-2.033900
 X0.143150
 X0.153650 Y-2.028400
 X0.209150 Y-1.973900
 X0.211650
 Y-1.974150
 X0.214150
 Y-1.974400
 X0.225900
 Y-1.974150
 X0.228400
 Y-1.973900
 X0.230900
 X0.240400 Y-1.970150
 X0.246400 Y-1.965650
 X0.251400 Y-1.959150
 X0.255150 Y-1.949650
 Y-1.947150
 X0.255400
 Y-1.944650
 X0.255650
 Y-1.904900
 X0.255400
 Y-1.902400
 X0.255150
 Y-1.899900
 X0.250400 Y-1.888650
 X0.244150 Y-1.882400
 Y-1.853650
 X0.243900
 Y-1.851650
 X0.238400 Y-1.841150
 X0.084150 Y-1.687150
 Y-0.852650
 X0.642650 Y-0.294150
 X0.957150
 X1.025650 Y-0.362650
 Y-0.566150
 X1.025900
 Y-0.568150
 X1.031400 Y-0.578650
 X1.152400 Y-0.699650
 X1.172900 Y-0.719900
 X1.181650 Y-0.723900
 X1.183650
 Y-0.724150
 X1.327900
 X1.333900 Y-0.730150
 X1.345150 Y-0.734900
 X1.347650
 Y-0.735150
 X1.350150
 Y-0.735400
 X1.389900
 Y-0.735150
 X1.392400
 Y-0.734900
 X1.394900
 X1.404400 Y-0.731150
 X1.410900 Y-0.726150
 X1.419150 Y-0.710650
 Y-0.708150
 X1.419400
 Y-0.705650
 X1.419650
 Y-0.693900
 X1.419400
 Y-0.691400
 X1.419150
 Y-0.688900
 X1.415400 Y-0.679400
 X1.410650 Y-0.673150
 X1.394900 Y-0.664650
 X1.392400
 Y-0.664400
 X1.389900
 Y-0.664150
 X1.350150
 Y-0.664400
 X1.347650
 Y-0.664650
 X1.345150
 X1.333900 Y-0.669400
 X1.327650 Y-0.675650
 X1.202650
 X1.074150 Y-0.547150
 Y-0.343650
 X1.073900
 Y-0.341650
 X1.068400 Y-0.331150
 X1.011400 Y-0.274150
 X0.986900 Y-0.249900
 X0.978150 Y-0.245900
 X0.976150
 Y-0.245650
 X0.623650
 Y-0.245900
 X0.621650
 X0.612650 Y-0.250400
G00 Z0.039370
 X3.197650 Y-0.298150
F3.937008
G01 Z-0.003937
 X3.188150 Y-0.308150
 Y-0.309650
 X3.187900
 Y-0.321150
 X3.188150
 Y-0.322650
 X3.195150 Y-0.329650
 X3.196650
 Y-0.329900
 X3.208150
 Y-0.329650
 X3.209650
 X3.220650 Y-0.322400
 X3.225650
 X3.231400 Y-0.326150
 X3.230650 Y-0.331900
 X3.184650 Y-0.379400
 Y-0.380900
 X3.184400
 Y-0.392400
 X3.184650
 Y-0.393900
 X3.191650 Y-0.400900
 X3.193150
 Y-0.401150
 X3.253150
 Y-0.400900
 X3.254650
 X3.261650 Y-0.393900
 Y-0.392400
 X3.261900
 Y-0.380900
 X3.261650
 Y-0.379400
 X3.254650 Y-0.372400
 X3.253150
 Y-0.372150
 X3.236650
 X3.256400 Y-0.352400
 X3.261650 Y-0.337650
 Y-0.336150
 X3.261900
 Y-0.317150
 X3.261650
 Y-0.315650
 X3.257400 Y-0.306150
 X3.252400 Y-0.300650
 X3.239650 Y-0.293650
 X3.238150
 Y-0.293400
 X3.208150
 Y-0.293650
 X3.206650
 X3.197650 Y-0.298150
G00 Z0.039370
 X1.634650 Y-0.310650
F3.937008
G01 Z-0.003937
 X1.619650 Y-0.321150
 X1.610400 Y-0.335650
 X1.409650
 X1.405650 Y-0.327650
 X1.396150 Y-0.317150
 X1.384900 Y-0.310150
 X1.374900 Y-0.306900
 X1.373400
 Y-0.306650
 X1.371900
 Y-0.306400
 X1.370150
 Y-0.306150
 X1.366400
 Y-0.305900
 X1.353650
 Y-0.306150
 X1.349900
 Y-0.306400
 X1.348150
 Y-0.306650
 X1.346650
 Y-0.306900
 X1.345150
 X1.331650 Y-0.311900
 X1.320400 Y-0.320400
 X1.312150 Y-0.331400
 X1.307150 Y-0.344900
 Y-0.346400
 X1.306900
 Y-0.347900
 X1.306650
 Y-0.349650
 X1.306400
 Y-0.353400
 X1.306150
 Y-0.366150
 X1.306400
 Y-0.369900
 X1.306650
 Y-0.371650
 X1.306900
 Y-0.373150
 X1.307150
 Y-0.374650
 X1.264150 Y-0.418400
 Y-0.403400
 X1.273900 Y-0.393900
 X1.279150 Y-0.380650
 Y-0.378150
 X1.279400
 Y-0.375650
 X1.279650
 Y-0.363900
 X1.279400
 Y-0.361400
 X1.279150
 Y-0.358900
 X1.275650 Y-0.348900
 X1.270650 Y-0.341650
 X1.264150 Y-0.335900
 X1.252150 Y-0.330900
 X1.250900
 Y-0.330650
 X1.248400
 Y-0.330400
 X1.245900
 Y-0.330150
 X1.234150
 Y-0.330400
 X1.231650
 Y-0.330650
 X1.229150
 Y-0.330900
 X1.227900
 X1.215900 Y-0.335900
 X1.209400 Y-0.341650
 X1.202900 Y-0.351900
 X1.200900 Y-0.358900
 Y-0.361400
 X1.200650
 Y-0.363900
 X1.200400
 Y-0.375650
 X1.200650
 Y-0.378150
 X1.200900
 Y-0.380650
 X1.206150 Y-0.393900
 X1.215650 Y-0.403150
 Y-0.441400
 X1.203150 Y-0.452400
 X1.196650 Y-0.467650
 Y-0.469150
 X1.196400
 Y-0.470900
 X1.196150
 Y-0.488650
 X1.196400
 Y-0.490400
 X1.196650
 Y-0.491900
 X1.200400 Y-0.502400
 X1.206650 Y-0.511400
 X1.214150 Y-0.517650
 X1.226650 Y-0.522900
 X1.227900
 Y-0.523150
 X1.229400
 Y-0.523400
 X1.231150
 Y-0.523650
 X1.248900
 Y-0.523400
 X1.250650
 Y-0.523150
 X1.252150
 Y-0.522900
 X1.253400
 X1.265900 Y-0.517650
 X1.273400 Y-0.511400
 X1.279650 Y-0.502400
 X1.283400 Y-0.491900
 Y-0.490400
 X1.283650
 Y-0.488650
 X1.283900
 Y-0.472900
 X1.345150 Y-0.412650
 X1.346650
 Y-0.412900
 X1.348150
 Y-0.413150
 X1.349900
 Y-0.413400
 X1.353650
 Y-0.413650
 X1.366400
 Y-0.413400
 X1.370150
 Y-0.413150
 X1.371900
 Y-0.412900
 X1.373400
 Y-0.412650
 X1.374900
 X1.384900 Y-0.409400
 X1.396150 Y-0.402400
 X1.405650 Y-0.391900
 X1.409650 Y-0.384150
 X1.610400
 X1.619650 Y-0.398400
 X1.635650 Y-0.409400
 Y-0.564150
 X1.620400
 Y-0.635400
 X1.719650
 Y-0.564150
 X1.684150
 Y-0.409400
 X1.692150 Y-0.405400
 X1.702650 Y-0.395900
 X1.709650 Y-0.384650
 X1.712900 Y-0.374650
 Y-0.373150
 X1.713150
 Y-0.371650
 X1.713400
 Y-0.369900
 X1.713650
 Y-0.366150
 X1.713900
 Y-0.353400
 X1.713650
 Y-0.349650
 X1.713400
 Y-0.347900
 X1.713150
 Y-0.346400
 X1.712900
 Y-0.344900
 X1.707900 Y-0.331400
 X1.698900 Y-0.319650
 X1.688400 Y-0.311900
 X1.674900 Y-0.306900
 X1.673400
 Y-0.306650
 X1.671900
 Y-0.306400
 X1.670150
 Y-0.306150
 X1.666400
 Y-0.305900
 X1.653650
 Y-0.306150
 X1.649900
 Y-0.306400
 X1.648150
 Y-0.306650
 X1.646650
 Y-0.306900
 X1.645150
 X1.634650 Y-0.310650
G00 Z0.039370
 X3.163400 Y-0.324400
F3.937008
G01 Z-0.003937
 X3.157400 Y-0.339400
 X3.152400 Y-0.324900
 X3.146150 Y-0.319900
 X3.144650
 Y-0.319650
 X3.133150
 Y-0.319900
 X3.131650
 X3.124650 Y-0.326900
 Y-0.328400
 X3.124400
 Y-0.339900
 X3.124650
 Y-0.341400
 X3.143900 Y-0.395400
 X3.150400 Y-0.400900
 X3.151900
 Y-0.401150
 X3.163400
 Y-0.400900
 X3.164900
 X3.171400 Y-0.395400
 X3.190650 Y-0.341400
 Y-0.339900
 X3.190900
 Y-0.328400
 X3.190650
 Y-0.326900
 X3.183650 Y-0.319900
 X3.182150
 Y-0.319650
 X3.170650
 Y-0.319900
 X3.169150
 X3.163400 Y-0.324400
G00 Z0.039370
 X3.084900 Y-0.554650
F3.937008
G01 Z-0.003937
 X3.044150 Y-0.595400
 X3.032150 Y-0.590400
 X3.030150
 Y-0.590150
 X3.027650
 Y-0.589900
 X3.025150
 Y-0.589650
 X3.014900
 Y-0.589900
 X3.012400
 Y-0.590150
 X3.009900
 Y-0.590400
 X3.007900
 X2.996400 Y-0.595150
 X2.990650 Y-0.599650
 X2.985400 Y-0.606150
 X2.980650 Y-0.617650
 Y-0.619650
 X2.980400
 Y-0.622150
 X2.980150
 Y-0.624650
 X2.979900
 Y-0.634900
 X2.980150
 Y-0.637400
 X2.980400
 Y-0.639900
 X2.980650
 Y-0.641900
 X2.985400 Y-0.653400
 X2.990150 Y-0.659400
 X2.996400 Y-0.664400
 X3.007900 Y-0.669150
 X3.009900
 Y-0.669400
 X3.012400
 Y-0.669650
 X3.014900
 Y-0.669900
 X3.025150
 Y-0.669650
 X3.027650
 Y-0.669400
 X3.030150
 Y-0.669150
 X3.032150
 X3.043650 Y-0.664400
 X3.050150 Y-0.659150
 X3.056150 Y-0.650650
 X3.059400 Y-0.641900
 Y-0.639900
 X3.059650
 Y-0.637400
 X3.059900
 Y-0.634900
 X3.060150
 Y-0.624650
 X3.059900
 Y-0.622150
 X3.059650
 Y-0.620400
 X3.105150 Y-0.574900
 X3.157150
 X3.187400 Y-0.605150
 Y-0.802150
 X2.992150 Y-0.997400
 X2.634150
 X2.630150 Y-0.999150
 X2.377650 Y-1.252900
 Y-1.254150
 X2.377400
 Y-1.686650
 X2.367400 Y-1.690150
 X2.358400 Y-1.696400
 X2.352150 Y-1.703900
 X2.346900 Y-1.716400
 Y-1.717650
 X2.346650
 Y-1.719150
 X2.346400
 Y-1.720900
 X2.346150
 Y-1.738650
 X2.346400
 Y-1.740400
 X2.346650
 Y-1.741900
 X2.346900
 Y-1.743150
 X2.352150 Y-1.755650
 X2.357400 Y-1.762150
 X2.364150 Y-1.767650
 X2.376650 Y-1.772900
 X2.377900
 Y-1.773150
 X2.379400
 Y-1.773400
 X2.381150
 Y-1.773650
 X2.398900
 Y-1.773400
 X2.400650
 Y-1.773150
 X2.402150
 X2.412650 Y-1.769400
 X2.421650 Y-1.763150
 X2.427900 Y-1.755650
 X2.433150 Y-1.743150
 Y-1.741900
 X2.433400
 Y-1.740400
 X2.433650
 Y-1.738650
 X2.433900
 Y-1.720900
 X2.433650
 Y-1.719150
 X2.433400
 Y-1.717650
 X2.433150
 Y-1.716400
 X2.427900 Y-1.703900
 X2.421650 Y-1.696400
 X2.412650 Y-1.690150
 X2.402400 Y-1.686650
 Y-1.267650
 X2.647650 Y-1.022400
 X3.005650
 X3.009650 Y-1.020650
 X3.171650 Y-0.858650
 X3.210650 Y-0.819650
 X3.212400 Y-0.815650
 Y-0.591650
 X3.209900 Y-0.586900
 X3.174650 Y-0.551650
 X3.170650 Y-0.549900
 X3.091650
 X3.084900 Y-0.554650
G00 Z0.039370
 X1.335400 Y-0.568900
F3.937008
G01 Z-0.003937
 X1.325650 Y-0.577650
 X1.320900 Y-0.588900
 Y-0.591400
 X1.320650
 Y-0.593900
 X1.320400
 Y-0.605650
 X1.320650
 Y-0.608150
 X1.320900
 Y-0.610650
 X1.324650 Y-0.620150
 X1.329400 Y-0.626400
 X1.345150 Y-0.634900
 X1.347650
 Y-0.635150
 X1.350150
 Y-0.635400
 X1.389900
 Y-0.635150
 X1.392400
 Y-0.634900
 X1.394900
 X1.404400 Y-0.631150
 X1.410650 Y-0.626400
 X1.419150 Y-0.610650
 Y-0.608150
 X1.419400
 Y-0.605650
 X1.419650
 Y-0.593900
 X1.419400
 Y-0.591400
 X1.419150
 Y-0.588900
 X1.415400 Y-0.579400
 X1.410400 Y-0.572900
 X1.394900 Y-0.564650
 X1.392400
 Y-0.564400
 X1.389900
 Y-0.564150
 X1.350150
 Y-0.564400
 X1.347650
 Y-0.564650
 X1.345150
 X1.335400 Y-0.568900
G00 Z0.039370
 X3.098400 Y-0.594400
F3.937008
G01 Z-0.003937
 X3.086400 Y-0.604650
 X3.080650 Y-0.617650
 Y-0.619650
 X3.080400
 Y-0.622150
 X3.080150
 Y-0.624650
 X3.079900
 Y-0.634900
 X3.080150
 Y-0.637400
 X3.080400
 Y-0.639900
 X3.080650
 Y-0.641900
 X3.083900 Y-0.650650
 X3.090150 Y-0.659650
 X2.908150 Y-0.840650
 X2.906650
 Y-0.840400
 X2.905150
 Y-0.840150
 X2.903400
 Y-0.839900
 X2.899650
 Y-0.839650
 X2.886900
 Y-0.839900
 X2.883150
 Y-0.840150
 X2.881400
 Y-0.840400
 X2.879900
 Y-0.840650
 X2.878400
 X2.868400 Y-0.843900
 X2.857150 Y-0.850900
 X2.847650 Y-0.861400
 X2.843650 Y-0.869400
 X2.683650
 X2.683400 Y-0.869150
 Y-0.867650
 X2.683150
 Y-0.866400
 X2.677900 Y-0.853900
 X2.671650 Y-0.846400
 X2.662650 Y-0.840150
 X2.652150 Y-0.836400
 X2.650650
 Y-0.836150
 X2.648900
 Y-0.835900
 X2.631150
 Y-0.836150
 X2.629400
 Y-0.836400
 X2.627900
 Y-0.836650
 X2.626650
 X2.614150 Y-0.841900
 X2.607400 Y-0.847400
 X2.602150 Y-0.853900
 X2.596900 Y-0.866400
 Y-0.867650
 X2.596650
 Y-0.869150
 X2.596400
 Y-0.870900
 X2.596150
 Y-0.888650
 X2.596400
 Y-0.890400
 X2.596650
 Y-0.891900
 X2.596900
 Y-0.893150
 X2.602150 Y-0.905650
 X2.607400 Y-0.912150
 X2.614150 Y-0.917650
 X2.626650 Y-0.922900
 X2.627900
 Y-0.923150
 X2.629400
 Y-0.923400
 X2.631150
 Y-0.923650
 X2.648900
 Y-0.923400
 X2.650650
 Y-0.923150
 X2.652150
 X2.664900 Y-0.917900
 X2.843650
 X2.849150 Y-0.927650
 X2.857150 Y-0.936150
 X2.868400 Y-0.943150
 X2.878400 Y-0.946400
 X2.879900
 Y-0.946650
 X2.881400
 Y-0.946900
 X2.883150
 Y-0.947150
 X2.886900
 Y-0.947400
 X2.899650
 Y-0.947150
 X2.903400
 Y-0.946900
 X2.905150
 Y-0.946650
 X2.906650
 Y-0.946400
 X2.908150
 X2.921650 Y-0.941400
 X2.933400 Y-0.932400
 X2.941150 Y-0.921900
 X2.946150 Y-0.908400
 Y-0.906900
 X2.946400
 Y-0.905400
 X2.946650
 Y-0.903650
 X2.946900
 Y-0.899900
 X2.947150
 Y-0.887150
 X2.946900
 Y-0.883400
 X2.946650
 Y-0.881650
 X2.946400
 Y-0.880150
 X2.946150
 Y-0.878650
 X3.138400 Y-0.685400
 X3.143900 Y-0.674900
 Y-0.672900
 X3.144150
 Y-0.663900
 X3.153650 Y-0.654900
 X3.159400 Y-0.641900
 Y-0.639900
 X3.159650
 Y-0.637400
 X3.159900
 Y-0.634900
 X3.160150
 Y-0.624650
 X3.159900
 Y-0.622150
 X3.159650
 Y-0.619650
 X3.159400
 Y-0.617650
 X3.154650 Y-0.606150
 X3.149650 Y-0.599900
 X3.140900 Y-0.593650
 X3.132150 Y-0.590400
 X3.130150
 Y-0.590150
 X3.127650
 Y-0.589900
 X3.125150
 Y-0.589650
 X3.114900
 Y-0.589900
 X3.112400
 Y-0.590150
 X3.109900
 Y-0.590400
 X3.107900
 X3.098400 Y-0.594400
G00 Z0.039370
 X2.617150 Y-0.620650
F3.937008
G01 Z-0.003937
 X2.608400 Y-0.626400
 X2.603150 Y-0.632400
 X2.596650 Y-0.647650
 Y-0.649150
 X2.596400
 Y-0.650900
 X2.596150
 Y-0.668650
 X2.596400
 Y-0.670400
 X2.596650
 Y-0.671900
 X2.600400 Y-0.682400
 X2.531900 Y-0.752900
 X2.497150 Y-0.785650
 X2.393650
 Y-0.785900
 X2.391650
 X2.381150 Y-0.791400
 X2.207150 Y-0.965650
 X1.893650
 Y-0.965900
 X1.891650
 X1.881150 Y-0.971400
 X1.771400 Y-1.081150
 X1.765900 Y-1.091650
 Y-1.093650
 X1.765650
 Y-1.106150
 X1.765900
 Y-1.108150
 X1.770150 Y-1.117150
 X1.781650 Y-1.123900
 X1.783650
 Y-1.124150
 X1.796150
 Y-1.123900
 X1.798150
 X1.808650 Y-1.118400
 X1.912650 Y-1.014150
 X2.226150
 Y-1.013900
 X2.228150
 X2.238650 Y-1.008400
 X2.412650 Y-0.834150
 X2.516150
 Y-0.833900
 X2.518150
 X2.528650 Y-0.828400
 X2.654400 Y-0.702400
 X2.665900 Y-0.697650
 X2.671650 Y-0.693150
 X2.677900 Y-0.685650
 X2.683400 Y-0.671900
 Y-0.670400
 X2.683650
 Y-0.668650
 X2.683900
 Y-0.650900
 X2.683650
 Y-0.649150
 X2.683400
 Y-0.647650
 X2.679650 Y-0.637150
 X2.673400 Y-0.628150
 X2.665900 Y-0.621900
 X2.652150 Y-0.616400
 X2.650650
 Y-0.616150
 X2.648900
 Y-0.615900
 X2.631150
 Y-0.616150
 X2.629400
 Y-0.616400
 X2.627900
 Y-0.616650
 X2.626650
 X2.617150 Y-0.620650
G00 Z0.039370
 X2.517150
F3.937008
G01 Z-0.003937
 X2.508400 Y-0.626400
 X2.503150 Y-0.632400
 X2.496650 Y-0.647650
 Y-0.649150
 X2.496400
 Y-0.650900
 X2.496150
 Y-0.668650
 X2.496400
 Y-0.670400
 X2.496650
 Y-0.671900
 X2.503150 Y-0.687150
 X2.514650 Y-0.697650
 X2.497150 Y-0.715650
 X2.293650
 Y-0.715900
 X2.291650
 X2.281150 Y-0.721400
 X2.107150 Y-0.895650
 X1.873650
 Y-0.895900
 X1.871650
 X1.861150 Y-0.901400
 X1.697400 Y-1.065400
 X1.694900 Y-1.064650
 X1.692400
 Y-1.064400
 X1.689900
 Y-1.064150
 X1.650150
 Y-1.064400
 X1.647650
 Y-1.064650
 X1.645150
 X1.635650 Y-1.068400
 X1.629650 Y-1.072900
 X1.624650 Y-1.079400
 X1.620900 Y-1.088900
 Y-1.091400
 X1.620650
 Y-1.093900
 X1.620400
 Y-1.105650
 X1.620650
 Y-1.108150
 X1.620900
 Y-1.110650
 X1.624650 Y-1.120150
 X1.629650 Y-1.126650
 X1.645150 Y-1.134900
 X1.647650
 Y-1.135150
 X1.650150
 Y-1.135400
 X1.689900
 Y-1.135150
 X1.692400
 Y-1.134900
 X1.694900
 X1.704400 Y-1.131150
 X1.710400 Y-1.126650
 X1.892650 Y-0.944150
 X2.126150
 Y-0.943900
 X2.128150
 X2.138650 Y-0.938400
 X2.312650 Y-0.764150
 X2.516150
 Y-0.763900
 X2.518150
 X2.525900 Y-0.758900
 X2.558900 Y-0.725900
 X2.563900 Y-0.718150
 Y-0.716150
 X2.564150
 Y-0.698400
 X2.576900 Y-0.687150
 X2.583400 Y-0.671900
 Y-0.670400
 X2.583650
 Y-0.668650
 X2.583900
 Y-0.650900
 X2.583650
 Y-0.649150
 X2.583400
 Y-0.647650
 X2.579650 Y-0.637150
 X2.573400 Y-0.628150
 X2.565900 Y-0.621900
 X2.553400 Y-0.616650
 X2.552150
 Y-0.616400
 X2.550650
 Y-0.616150
 X2.548900
 Y-0.615900
 X2.531150
 Y-0.616150
 X2.529400
 Y-0.616400
 X2.527900
 Y-0.616650
 X2.526650
 X2.517150 Y-0.620650
G00 Z0.039370
 X2.417150
F3.937008
G01 Z-0.003937
 X2.408400 Y-0.626400
 X2.401400 Y-0.635650
 X2.273650
 Y-0.635900
 X2.271650
 X2.261150 Y-0.641400
 X2.067150 Y-0.835650
 X1.813650
 Y-0.835900
 X1.811650
 X1.801150 Y-0.841400
 X1.767150 Y-0.875650
 X1.712400
 X1.706150 Y-0.869400
 X1.694900 Y-0.864650
 X1.692400
 Y-0.864400
 X1.689900
 Y-0.864150
 X1.650150
 Y-0.864400
 X1.647650
 Y-0.864650
 X1.645150
 X1.635650 Y-0.868400
 X1.629650 Y-0.872900
 X1.624650 Y-0.879400
 X1.620900 Y-0.888900
 Y-0.891400
 X1.620650
 Y-0.893900
 X1.620400
 Y-0.905650
 X1.620650
 Y-0.908150
 X1.620900
 Y-0.910650
 X1.624650 Y-0.920150
 X1.629650 Y-0.926650
 X1.645150 Y-0.934900
 X1.647650
 Y-0.935150
 X1.650150
 Y-0.935400
 X1.689900
 Y-0.935150
 X1.692400
 Y-0.934900
 X1.694900
 X1.706150 Y-0.930150
 X1.712150 Y-0.924150
 X1.786150
 Y-0.923900
 X1.788150
 X1.798650 Y-0.918400
 X1.832650 Y-0.884150
 X2.086150
 Y-0.883900
 X2.088150
 X2.098650 Y-0.878400
 X2.292650 Y-0.684150
 X2.401650
 X2.412650 Y-0.696650
 X2.426650 Y-0.702900
 X2.427900
 Y-0.703150
 X2.429400
 Y-0.703400
 X2.431150
 Y-0.703650
 X2.448900
 Y-0.703400
 X2.450650
 Y-0.703150
 X2.452150
 Y-0.702900
 X2.453400
 X2.465900 Y-0.697650
 X2.473400 Y-0.691400
 X2.479650 Y-0.682400
 X2.483400 Y-0.671900
 Y-0.670400
 X2.483650
 Y-0.668650
 X2.483900
 Y-0.650900
 X2.483650
 Y-0.649150
 X2.483400
 Y-0.647650
 X2.479650 Y-0.637150
 X2.473400 Y-0.628150
 X2.465900 Y-0.621900
 X2.453400 Y-0.616650
 X2.452150
 Y-0.616400
 X2.450650
 Y-0.616150
 X2.448900
 Y-0.615900
 X2.431150
 Y-0.616150
 X2.429400
 Y-0.616400
 X2.427900
 Y-0.616650
 X2.426650
 X2.417150 Y-0.620650
G00 Z0.039370
 X1.847150 Y-0.660650
F3.937008
G01 Z-0.003937
 X1.838400 Y-0.666400
 X1.831400 Y-0.675650
 X1.712400
 X1.706150 Y-0.669400
 X1.694900 Y-0.664650
 X1.692400
 Y-0.664400
 X1.689900
 Y-0.664150
 X1.650150
 Y-0.664400
 X1.647650
 Y-0.664650
 X1.645150
 X1.635650 Y-0.668400
 X1.629650 Y-0.672900
 X1.624650 Y-0.679400
 X1.620900 Y-0.688900
 Y-0.691400
 X1.620650
 Y-0.693900
 X1.620400
 Y-0.705650
 X1.620650
 Y-0.708150
 X1.620900
 Y-0.710650
 X1.624650 Y-0.720150
 X1.629650 Y-0.726650
 X1.645150 Y-0.734900
 X1.647650
 Y-0.735150
 X1.650150
 Y-0.735400
 X1.689900
 Y-0.735150
 X1.692400
 Y-0.734900
 X1.694900
 X1.706150 Y-0.730150
 X1.712150 Y-0.724150
 X1.831650
 X1.842650 Y-0.736650
 X1.856650 Y-0.742900
 X1.857900
 Y-0.743150
 X1.859400
 Y-0.743400
 X1.861150
 Y-0.743650
 X1.878900
 Y-0.743400
 X1.880650
 Y-0.743150
 X1.882150
 Y-0.742900
 X1.883400
 X1.895900 Y-0.737650
 X1.902900 Y-0.731900
 X1.907900 Y-0.725650
 X1.913150 Y-0.713150
 Y-0.711900
 X1.913400
 Y-0.710400
 X1.913650
 Y-0.708650
 X1.913900
 Y-0.690900
 X1.913650
 Y-0.689150
 X1.913400
 Y-0.687650
 X1.913150
 Y-0.686400
 X1.907900 Y-0.673900
 X1.903400 Y-0.668150
 X1.895900 Y-0.661900
 X1.883400 Y-0.656650
 X1.882150
 Y-0.656400
 X1.880650
 Y-0.656150
 X1.878900
 Y-0.655900
 X1.861150
 Y-0.656150
 X1.859400
 Y-0.656400
 X1.857900
 Y-0.656650
 X1.856650
 X1.847150 Y-0.660650
G00 Z0.039370
 X1.997150 Y-0.700650
F3.937008
G01 Z-0.003937
 X1.986650 Y-0.708150
 X1.977400 Y-0.725400
 X1.927150 Y-0.775650
 X1.712400
 X1.706150 Y-0.769400
 X1.694900 Y-0.764650
 X1.692400
 Y-0.764400
 X1.689900
 Y-0.764150
 X1.650150
 Y-0.764400
 X1.647650
 Y-0.764650
 X1.645150
 X1.635650 Y-0.768400
 X1.629650 Y-0.772900
 X1.624650 Y-0.779400
 X1.620900 Y-0.788900
 Y-0.791400
 X1.620650
 Y-0.793900
 X1.620400
 Y-0.805650
 X1.620650
 Y-0.808150
 X1.620900
 Y-0.810650
 X1.624650 Y-0.820150
 X1.629650 Y-0.826650
 X1.645150 Y-0.834900
 X1.647650
 Y-0.835150
 X1.650150
 Y-0.835400
 X1.689900
 Y-0.835150
 X1.692400
 Y-0.834900
 X1.694900
 X1.706150 Y-0.830150
 X1.712150 Y-0.824150
 X1.946150
 Y-0.823900
 X1.948150
 X1.958650 Y-0.818400
 X1.997400 Y-0.779400
 X2.006650 Y-0.782900
 X2.007900
 Y-0.783150
 X2.009400
 Y-0.783400
 X2.011150
 Y-0.783650
 X2.028900
 Y-0.783400
 X2.030650
 Y-0.783150
 X2.032150
 Y-0.782900
 X2.033400
 X2.045900 Y-0.777650
 X2.051900 Y-0.772900
 X2.057900 Y-0.765650
 X2.063150 Y-0.753150
 Y-0.751900
 X2.063400
 Y-0.750400
 X2.063650
 Y-0.748650
 X2.063900
 Y-0.730900
 X2.063650
 Y-0.729150
 X2.063400
 Y-0.727650
 X2.063150
 Y-0.726400
 X2.057900 Y-0.713900
 X2.051900 Y-0.706650
 X2.045900 Y-0.701900
 X2.033400 Y-0.696650
 X2.032150
 Y-0.696400
 X2.030650
 Y-0.696150
 X2.028900
 Y-0.695900
 X2.011150
 Y-0.696150
 X2.009400
 Y-0.696400
 X2.007900
 Y-0.696650
 X2.006650
 X1.997150 Y-0.700650
G00 Z0.039370
 X1.335400 Y-0.768900
F3.937008
G01 Z-0.003937
 X1.325650 Y-0.777650
 X1.320900 Y-0.788900
 Y-0.791400
 X1.320650
 Y-0.793900
 X1.320400
 Y-0.805650
 X1.320650
 Y-0.808150
 X1.320900
 Y-0.810650
 X1.324650 Y-0.820150
 X1.329400 Y-0.826400
 X1.345150 Y-0.834900
 X1.347650
 Y-0.835150
 X1.350150
 Y-0.835400
 X1.389900
 Y-0.835150
 X1.392400
 Y-0.834900
 X1.394900
 X1.404400 Y-0.831150
 X1.410400 Y-0.826650
 X1.415400 Y-0.820150
 X1.419150 Y-0.810650
 Y-0.808150
 X1.419400
 Y-0.805650
 X1.419650
 Y-0.793900
 X1.419400
 Y-0.791400
 X1.419150
 Y-0.788900
 X1.415400 Y-0.779400
 X1.410900 Y-0.773400
 X1.404400 Y-0.768400
 X1.394900 Y-0.764650
 X1.392400
 Y-0.764400
 X1.389900
 Y-0.764150
 X1.350150
 Y-0.764400
 X1.347650
 Y-0.764650
 X1.345150
 X1.335400 Y-0.768900
G00 Z0.039370
 X0.985400 Y-0.843900
F3.937008
G01 Z-0.003937
 X0.975650 Y-0.852650
 X0.970900 Y-0.863900
 Y-0.866400
 X0.970650
 Y-0.868900
 X0.970400
 Y-0.880650
 X0.970650
 Y-0.883150
 X0.970900
 Y-0.885650
 X0.974650 Y-0.895150
 X0.979150 Y-0.901150
 X0.985650 Y-0.906150
 X0.995150 Y-0.909900
 X0.997650
 Y-0.910150
 X1.000150
 Y-0.910400
 X1.039900
 Y-0.910150
 X1.042400
 Y-0.909900
 X1.044900
 X1.054400 Y-0.906150
 X1.060650 Y-0.901400
 X1.069150 Y-0.885650
 Y-0.883150
 X1.069400
 Y-0.880650
 X1.069650
 Y-0.868900
 X1.069400
 Y-0.866400
 X1.069150
 Y-0.863900
 X1.065400 Y-0.854400
 X1.060650 Y-0.848150
 X1.044900 Y-0.839650
 X1.042400
 Y-0.839400
 X1.039900
 Y-0.839150
 X1.000150
 Y-0.839400
 X0.997650
 Y-0.839650
 X0.995150
 X0.985400 Y-0.843900
G00 Z0.039370
 X3.340400 Y-0.844400
F3.937008
G01 Z-0.003937
 X3.329650 Y-0.850900
 X3.323150 Y-0.857400
 X3.316150 Y-0.868650
 X3.312900 Y-0.878650
 Y-0.880150
 X3.312650
 Y-0.881650
 X3.312400
 Y-0.883400
 X3.312150
 Y-0.887150
 X3.311900
 Y-0.899900
 X3.312150
 Y-0.903650
 X3.312400
 Y-0.905400
 X3.312650
 Y-0.906900
 X3.312900
 Y-0.908400
 X3.317900 Y-0.921900
 X3.325650 Y-0.932400
 X3.337400 Y-0.941400
 X3.350900 Y-0.946400
 X3.352400
 Y-0.946650
 X3.353900
 Y-0.946900
 X3.355650
 Y-0.947150
 X3.359400
 Y-0.947400
 X3.372150
 Y-0.947150
 X3.375900
 Y-0.946900
 X3.377650
 Y-0.946650
 X3.379150
 Y-0.946400
 X3.380650
 X3.389650 Y-0.954150
 X3.396650 Y-0.956900
 X3.398650
 Y-0.957150
 X3.690400
 X3.695900 Y-0.966900
 X3.703900 Y-0.975400
 X3.715150 Y-0.982400
 X3.725150 Y-0.985650
 X3.726650
 Y-0.985900
 X3.728150
 Y-0.986150
 X3.729900
 Y-0.986400
 X3.733650
 Y-0.986650
 X3.746400
 Y-0.986400
 X3.750150
 Y-0.986150
 X3.751900
 Y-0.985900
 X3.753400
 Y-0.985650
 X3.754900
 X3.768400 Y-0.980650
 X3.778900 Y-0.972900
 X3.787900 Y-0.961150
 X3.792900 Y-0.947650
 Y-0.946150
 X3.793150
 Y-0.944650
 X3.793400
 Y-0.942900
 X3.793650
 Y-0.939150
 X3.793900
 Y-0.926400
 X3.793650
 Y-0.922650
 X3.793400
 Y-0.920900
 X3.793150
 Y-0.919400
 X3.792900
 Y-0.917900
 X3.787900 Y-0.904400
 X3.778900 Y-0.892650
 X3.768400 Y-0.884900
 X3.754900 Y-0.879900
 X3.753400
 Y-0.879650
 X3.751900
 Y-0.879400
 X3.750150
 Y-0.879150
 X3.746400
 Y-0.878900
 X3.733650
 Y-0.879150
 X3.729900
 Y-0.879400
 X3.728150
 Y-0.879650
 X3.726650
 Y-0.879900
 X3.725150
 X3.715150 Y-0.883150
 X3.703900 Y-0.890150
 X3.694400 Y-0.900650
 X3.690400 Y-0.908650
 X3.418400
 X3.418650 Y-0.908400
 Y-0.906900
 X3.418900
 Y-0.905400
 X3.419150
 Y-0.903650
 X3.419400
 Y-0.899900
 X3.419650
 Y-0.887150
 X3.419400
 Y-0.883400
 X3.419150
 Y-0.881650
 X3.418900
 Y-0.880150
 X3.418650
 Y-0.878650
 X3.413650 Y-0.865150
 X3.404400 Y-0.853150
 X3.394150 Y-0.845650
 X3.380650 Y-0.840650
 X3.379150
 Y-0.840400
 X3.377650
 Y-0.840150
 X3.375900
 Y-0.839900
 X3.372150
 Y-0.839650
 X3.359400
 Y-0.839900
 X3.355650
 Y-0.840150
 X3.353900
 Y-0.840400
 X3.352400
 Y-0.840650
 X3.350900
 X3.340400 Y-0.844400
G00 Z0.039370
 X0.469650 Y-0.850650
F3.937008
G01 Z-0.003937
 X0.454650 Y-0.861150
 X0.445400 Y-0.875650
 X0.333650
 X0.322400 Y-0.862900
 X0.307150 Y-0.856400
 X0.305650
 Y-0.856150
 X0.303900
 Y-0.855900
 X0.286150
 Y-0.856150
 X0.284400
 Y-0.856400
 X0.282900
 X0.272400 Y-0.860150
 X0.263400 Y-0.866400
 X0.257150 Y-0.873900
 X0.251650 Y-0.887650
 Y-0.889150
 X0.251400
 Y-0.890900
 X0.251150
 Y-0.908650
 X0.251400
 Y-0.910400
 X0.251650
 Y-0.911900
 X0.257150 Y-0.925650
 X0.262650 Y-0.932400
 X0.272400 Y-0.939400
 X0.282900 Y-0.943150
 X0.284400
 Y-0.943400
 X0.286150
 Y-0.943650
 X0.303900
 Y-0.943400
 X0.305650
 Y-0.943150
 X0.307150
 X0.322400 Y-0.936650
 X0.333400 Y-0.924150
 X0.445400
 X0.451650 Y-0.934900
 X0.458900 Y-0.942400
 X0.470150 Y-0.949400
 X0.480150 Y-0.952650
 X0.481650
 Y-0.952900
 X0.483150
 Y-0.953150
 X0.484900
 Y-0.953400
 X0.488650
 Y-0.953650
 X0.501400
 Y-0.953400
 X0.505150
 Y-0.953150
 X0.506900
 Y-0.952900
 X0.508400
 Y-0.952650
 X0.509900
 X0.551150 Y-0.993400
 X0.561650 Y-0.998900
 X0.563650
 Y-0.999150
 X0.677900
 X0.683900 Y-1.005150
 X0.695150 Y-1.009900
 X0.697650
 Y-1.010150
 X0.700150
 Y-1.010400
 X0.739900
 Y-1.010150
 X0.742400
 Y-1.009900
 X0.744900
 X0.754400 Y-1.006150
 X0.760900 Y-1.001150
 X0.769150 Y-0.985650
 Y-0.983150
 X0.769400
 Y-0.980650
 X0.769650
 Y-0.968900
 X0.769400
 Y-0.966400
 X0.769150
 Y-0.963900
 X0.765400 Y-0.954400
 X0.760900 Y-0.948400
 X0.754400 Y-0.943400
 X0.744900 Y-0.939650
 X0.742400
 Y-0.939400
 X0.739900
 Y-0.939150
 X0.700150
 Y-0.939400
 X0.697650
 Y-0.939650
 X0.695150
 X0.683900 Y-0.944400
 X0.677650 Y-0.950650
 X0.582650
 X0.547900 Y-0.914650
 Y-0.913150
 X0.548150
 Y-0.911650
 X0.548400
 Y-0.909900
 X0.548650
 Y-0.906150
 X0.548900
 Y-0.893400
 X0.548650
 Y-0.889650
 X0.548400
 Y-0.887900
 X0.548150
 Y-0.886400
 X0.547900
 Y-0.884900
 X0.542900 Y-0.871400
 X0.534150 Y-0.859900
 X0.523400 Y-0.851900
 X0.509900 Y-0.846900
 X0.508400
 Y-0.846650
 X0.506900
 Y-0.846400
 X0.505150
 Y-0.846150
 X0.501400
 Y-0.845900
 X0.488650
 Y-0.846150
 X0.484900
 Y-0.846400
 X0.483150
 Y-0.846650
 X0.481650
 Y-0.846900
 X0.480150
 X0.469650 Y-0.850650
G00 Z0.039370
 X1.335400 Y-0.868900
F3.937008
G01 Z-0.003937
 X1.325650 Y-0.877650
 X1.320900 Y-0.888900
 Y-0.891400
 X1.320650
 Y-0.893900
 X1.320400
 Y-0.905650
 X1.320650
 Y-0.908150
 X1.320900
 Y-0.910650
 X1.324650 Y-0.920150
 X1.329650 Y-0.926650
 X1.345150 Y-0.934900
 X1.347650
 Y-0.935150
 X1.350150
 Y-0.935400
 X1.389900
 Y-0.935150
 X1.392400
 Y-0.934900
 X1.394900
 X1.404400 Y-0.931150
 X1.410400 Y-0.926650
 X1.415400 Y-0.920150
 X1.419150 Y-0.910650
 Y-0.908150
 X1.419400
 Y-0.905650
 X1.419650
 Y-0.893900
 X1.419400
 Y-0.891400
 X1.419150
 Y-0.888900
 X1.415400 Y-0.879400
 X1.410400 Y-0.872900
 X1.394900 Y-0.864650
 X1.392400
 Y-0.864400
 X1.389900
 Y-0.864150
 X1.350150
 Y-0.864400
 X1.347650
 Y-0.864650
 X1.345150
 X1.335400 Y-0.868900
G00 Z0.039370
 X0.985400 Y-0.943900
F3.937008
G01 Z-0.003937
 X0.975650 Y-0.952650
 X0.970900 Y-0.963900
 Y-0.966400
 X0.970650
 Y-0.968900
 X0.970400
 Y-0.980650
 X0.970650
 Y-0.983150
 X0.970900
 Y-0.985650
 X0.974650 Y-0.995150
 X0.979150 Y-1.001150
 X0.985650 Y-1.006150
 X0.995150 Y-1.009900
 X0.997650
 Y-1.010150
 X1.000150
 Y-1.010400
 X1.039900
 Y-1.010150
 X1.042400
 Y-1.009900
 X1.044900
 X1.054400 Y-1.006150
 X1.060650 Y-1.001400
 X1.069150 Y-0.985650
 Y-0.983150
 X1.069400
 Y-0.980650
 X1.069650
 Y-0.968900
 X1.069400
 Y-0.966400
 X1.069150
 Y-0.963900
 X1.065400 Y-0.954400
 X1.060900 Y-0.948400
 X1.054400 Y-0.943400
 X1.044900 Y-0.939650
 X1.042400
 Y-0.939400
 X1.039900
 Y-0.939150
 X1.000150
 Y-0.939400
 X0.997650
 Y-0.939650
 X0.995150
 X0.985400 Y-0.943900
G00 Z0.039370
 X1.635400 Y-0.968900
F3.937008
G01 Z-0.003937
 X1.625650 Y-0.977650
