( pcb2gcode 1.1.4 )

( This file uses 6 drill bit sizes. )

G94     ( Inches per minute feed rate. )
G21     ( Units == MM.             )
G90     ( Absolute coordinates.        )
S20000  ( RPM spindle speed.           )

G00 Z25.00000 ( Retract )
T1
M5      ( Spindle stop.                )
M6      ( Tool change.                 )
(MSG, CHANGE TOOL BIT: to drill size 0.63500 mm)
M0      ( Temporary machine stop.      )
M3      ( Spindle on clockwise.        )

G0 X45.46346 Y-27.94000
G1 Z-3.00000 F300.00000
G0 Z1.00000
G0 X44.95546 Y-46.73600
G1 Z-3.00000 F300.00000
G0 Z1.00000
G0 X32.76346 Y-39.62400
G1 Z-3.00000 F300.00000
G0 Z1.00000
G0 X29.20746 Y-35.30600
G1 Z-3.00000 F300.00000
G0 Z1.00000


G00 Z25.00000 ( Retract )
T2
M5      ( Spindle stop.                )
M6      ( Tool change.                 )
(MSG, CHANGE TOOL BIT: to drill size 0.80000 mm)
M0      ( Temporary machine stop.      )
M3      ( Spindle on clockwise.        )

G0 X89.91346 Y-40.13200
G1 Z-3.00000 F300.00000
G0 Z1.00000
G0 X89.91346 Y-42.67200
G1 Z-3.00000 F300.00000
G0 Z1.00000
G0 X86.10346 Y-52.83200
G1 Z-3.00000 F300.00000
G0 Z1.00000
G0 X81.02346 Y-52.83200
G1 Z-3.00000 F300.00000
G0 Z1.00000
G0 X81.02346 Y-56.64200
G1 Z-3.00000 F300.00000
G0 Z1.00000
G0 X79.24546 Y-16.00200
G1 Z-3.00000 F300.00000
G0 Z1.00000
G0 X76.70546 Y-13.46200
G1 Z-3.00000 F300.00000
G0 Z1.00000
G0 X76.70546 Y-16.00200
G1 Z-3.00000 F300.00000
G0 Z1.00000
G0 X73.40346 Y-56.64200
G1 Z-3.00000 F300.00000
G0 Z1.00000
G0 X67.05346 Y-9.14400
G1 Z-3.00000 F300.00000
G0 Z1.00000
G0 X67.05346 Y-16.76400
G1 Z-3.00000 F300.00000
G0 Z1.00000
G0 X64.51346 Y-9.14400
G1 Z-3.00000 F300.00000
G0 Z1.00000
G0 X64.51346 Y-16.76400
G1 Z-3.00000 F300.00000
G0 Z1.00000
G0 X61.97346 Y-9.14400
G1 Z-3.00000 F300.00000
G0 Z1.00000
G0 X61.97346 Y-16.76400
G1 Z-3.00000 F300.00000
G0 Z1.00000
G0 X60.70346 Y-43.94200
G1 Z-3.00000 F300.00000
G0 Z1.00000
G0 X60.70346 Y-51.56200
G1 Z-3.00000 F300.00000
G0 Z1.00000
G0 X58.92546 Y-8.38200
G1 Z-3.00000 F300.00000
G0 Z1.00000
G0 X55.49646 Y-35.81400
G1 Z-3.00000 F300.00000
G0 Z1.00000
G0 X55.49646 Y-40.89400
G1 Z-3.00000 F300.00000
G0 Z1.00000
G0 X52.95646 Y-35.81400
G1 Z-3.00000 F300.00000
G0 Z1.00000
G0 X52.95646 Y-40.89400
G1 Z-3.00000 F300.00000
G0 Z1.00000
G0 X51.30546 Y-8.38200
G1 Z-3.00000 F300.00000
G0 Z1.00000
G0 X51.30546 Y-11.17600
G1 Z-3.00000 F300.00000
G0 Z1.00000
G0 X51.30546 Y-18.79600
G1 Z-3.00000 F300.00000
G0 Z1.00000
G0 X51.30546 Y-27.94000
G1 Z-3.00000 F300.00000
G0 Z1.00000
G0 X51.30546 Y-30.48000
G1 Z-3.00000 F300.00000
G0 Z1.00000
G0 X48.25746 Y-35.81400
G1 Z-3.00000 F300.00000
G0 Z1.00000
G0 X48.25746 Y-40.89400
G1 Z-3.00000 F300.00000
G0 Z1.00000
G0 X47.49546 Y-10.16000
G1 Z-3.00000 F300.00000
G0 Z1.00000
G0 X47.49546 Y-17.78000
G1 Z-3.00000 F300.00000
G0 Z1.00000
G0 X44.95546 Y-52.07000
G1 Z-3.00000 F300.00000
G0 Z1.00000
G0 X44.95546 Y-59.69000
G1 Z-3.00000 F300.00000
G0 Z1.00000
G0 X39.87546 Y-54.61000
G1 Z-3.00000 F300.00000
G0 Z1.00000
G0 X39.87546 Y-57.15000
G1 Z-3.00000 F300.00000
G0 Z1.00000
G0 X37.33546 Y-54.61000
G1 Z-3.00000 F300.00000
G0 Z1.00000
G0 X33.52546 Y-53.34000
G1 Z-3.00000 F300.00000
G0 Z1.00000
G0 X33.52546 Y-60.96000
G1 Z-3.00000 F300.00000
G0 Z1.00000
G0 X31.49346 Y-12.19200
G1 Z-3.00000 F300.00000
G0 Z1.00000
G0 X23.87346 Y-12.19200
G1 Z-3.00000 F300.00000
G0 Z1.00000
G0 X23.36546 Y-17.14500
G1 Z-3.00000 F300.00000
G0 Z1.00000
G0 X22.34946 Y-49.27600
G1 Z-3.00000 F300.00000
G0 Z1.00000
G0 X22.34946 Y-51.81600
G1 Z-3.00000 F300.00000
G0 Z1.00000
G0 X20.82546 Y-17.14500
G1 Z-3.00000 F300.00000
G0 Z1.00000
G0 X18.28546 Y-51.30800
G1 Z-3.00000 F300.00000
G0 Z1.00000
G0 X18.28546 Y-58.92800
G1 Z-3.00000 F300.00000
G0 Z1.00000
G0 X12.57046 Y-22.86000
G1 Z-3.00000 F300.00000
G0 Z1.00000
G0 X12.57046 Y-27.94000
G1 Z-3.00000 F300.00000
G0 Z1.00000
G0 X10.66546 Y-37.46500
G1 Z-3.00000 F300.00000
G0 Z1.00000
G0 X8.37946 Y-62.54700
G1 Z-3.00000 F300.00000
G0 Z1.00000
G0 X8.37946 Y-65.08700
G1 Z-3.00000 F300.00000
G0 Z1.00000
G0 X8.12546 Y-37.46500
G1 Z-3.00000 F300.00000
G0 Z1.00000
G0 X8.12546 Y-52.00600
G1 Z-3.00000 F300.00000
G0 Z1.00000
G0 X8.12546 Y-59.62700
G1 Z-3.00000 F300.00000
G0 Z1.00000
G0 X7.49046 Y-22.86000
G1 Z-3.00000 F300.00000
G0 Z1.00000
G0 X7.49046 Y-27.94000
G1 Z-3.00000 F300.00000
G0 Z1.00000
G0 X4.95046 Y-22.86000
G1 Z-3.00000 F300.00000
G0 Z1.00000
G0 X4.95046 Y-27.94000
G1 Z-3.00000 F300.00000
G0 Z1.00000
G0 X2.53746 Y-51.05400
G1 Z-3.00000 F300.00000
G0 Z1.00000
G0 X2.53746 Y-58.67400
G1 Z-3.00000 F300.00000
G0 Z1.00000


G00 Z25.00000 ( Retract )
T3
M5      ( Spindle stop.                )
M6      ( Tool change.                 )
(MSG, CHANGE TOOL BIT: to drill size 0.81300 mm)
M0      ( Temporary machine stop.      )
M3      ( Spindle on clockwise.        )

G0 X69.59346 Y-59.18200
G1 Z-3.00000 F300.00000
G0 Z1.00000
G0 X67.05346 Y-59.18200
G1 Z-3.00000 F300.00000
G0 Z1.00000
G0 X42.41546 Y-15.24000
G1 Z-3.00000 F300.00000
G0 Z1.00000
G0 X42.41546 Y-17.78000
G1 Z-3.00000 F300.00000
G0 Z1.00000
G0 X42.41546 Y-20.32000
G1 Z-3.00000 F300.00000
G0 Z1.00000
G0 X42.41546 Y-22.86000
G1 Z-3.00000 F300.00000
G0 Z1.00000
G0 X42.41546 Y-25.40000
G1 Z-3.00000 F300.00000
G0 Z1.00000
G0 X42.41546 Y-27.94000
G1 Z-3.00000 F300.00000
G0 Z1.00000
G0 X42.41546 Y-30.48000
G1 Z-3.00000 F300.00000
G0 Z1.00000
G0 X42.41546 Y-33.02000
G1 Z-3.00000 F300.00000
G0 Z1.00000
G0 X42.41546 Y-35.56000
G1 Z-3.00000 F300.00000
G0 Z1.00000
G0 X42.41546 Y-38.10000
G1 Z-3.00000 F300.00000
G0 Z1.00000
G0 X42.41546 Y-40.64000
G1 Z-3.00000 F300.00000
G0 Z1.00000
G0 X42.41546 Y-43.18000
G1 Z-3.00000 F300.00000
G0 Z1.00000
G0 X42.41546 Y-45.72000
G1 Z-3.00000 F300.00000
G0 Z1.00000
G0 X42.41546 Y-48.26000
G1 Z-3.00000 F300.00000
G0 Z1.00000
G0 X34.79546 Y-15.24000
G1 Z-3.00000 F300.00000
G0 Z1.00000
G0 X34.79546 Y-17.78000
G1 Z-3.00000 F300.00000
G0 Z1.00000
G0 X34.79546 Y-20.32000
G1 Z-3.00000 F300.00000
G0 Z1.00000
G0 X34.79546 Y-22.86000
G1 Z-3.00000 F300.00000
G0 Z1.00000
G0 X34.79546 Y-25.40000
G1 Z-3.00000 F300.00000
G0 Z1.00000
G0 X34.79546 Y-27.94000
G1 Z-3.00000 F300.00000
G0 Z1.00000
G0 X34.79546 Y-30.48000
G1 Z-3.00000 F300.00000
G0 Z1.00000
G0 X34.79546 Y-33.02000
G1 Z-3.00000 F300.00000
G0 Z1.00000
G0 X34.79546 Y-35.56000
G1 Z-3.00000 F300.00000
G0 Z1.00000
G0 X34.79546 Y-38.10000
G1 Z-3.00000 F300.00000
G0 Z1.00000
G0 X34.79546 Y-40.64000
G1 Z-3.00000 F300.00000
G0 Z1.00000
G0 X34.79546 Y-43.18000
G1 Z-3.00000 F300.00000
G0 Z1.00000
G0 X34.79546 Y-45.72000
G1 Z-3.00000 F300.00000
G0 Z1.00000
G0 X34.79546 Y-48.26000
G1 Z-3.00000 F300.00000
G0 Z1.00000
G0 X25.90546 Y-22.22500
G1 Z-3.00000 F300.00000
G0 Z1.00000
G0 X25.90546 Y-24.76500
G1 Z-3.00000 F300.00000
G0 Z1.00000
G0 X25.90546 Y-27.30500
G1 Z-3.00000 F300.00000
G0 Z1.00000
G0 X25.90546 Y-29.84500
G1 Z-3.00000 F300.00000
G0 Z1.00000
G0 X25.90546 Y-32.38500
G1 Z-3.00000 F300.00000
G0 Z1.00000
G0 X25.90546 Y-34.92500
G1 Z-3.00000 F300.00000
G0 Z1.00000
G0 X25.90546 Y-37.46500
G1 Z-3.00000 F300.00000
G0 Z1.00000
G0 X25.90546 Y-40.00500
G1 Z-3.00000 F300.00000
G0 Z1.00000
G0 X25.90546 Y-42.54500
G1 Z-3.00000 F300.00000
G0 Z1.00000
G0 X18.28546 Y-22.22500
G1 Z-3.00000 F300.00000
G0 Z1.00000
G0 X18.28546 Y-24.76500
G1 Z-3.00000 F300.00000
G0 Z1.00000
G0 X18.28546 Y-27.30500
G1 Z-3.00000 F300.00000
G0 Z1.00000
G0 X18.28546 Y-29.84500
G1 Z-3.00000 F300.00000
G0 Z1.00000
G0 X18.28546 Y-32.38500
G1 Z-3.00000 F300.00000
G0 Z1.00000
G0 X18.28546 Y-34.92500
G1 Z-3.00000 F300.00000
G0 Z1.00000
G0 X18.28546 Y-37.46500
G1 Z-3.00000 F300.00000
G0 Z1.00000
G0 X18.28546 Y-40.00500
G1 Z-3.00000 F300.00000
G0 Z1.00000
G0 X18.28546 Y-42.54500
G1 Z-3.00000 F300.00000
G0 Z1.00000
G0 X13.20546 Y-41.27500
G1 Z-3.00000 F300.00000
G0 Z1.00000
G0 X13.20546 Y-48.89500
G1 Z-3.00000 F300.00000
G0 Z1.00000
G0 X10.66546 Y-41.27500
G1 Z-3.00000 F300.00000
G0 Z1.00000
G0 X10.66546 Y-48.89500
G1 Z-3.00000 F300.00000
G0 Z1.00000
G0 X8.12546 Y-41.27500
G1 Z-3.00000 F300.00000
G0 Z1.00000
G0 X8.12546 Y-48.89500
G1 Z-3.00000 F300.00000
G0 Z1.00000
G0 X5.58546 Y-41.27500
G1 Z-3.00000 F300.00000
G0 Z1.00000
G0 X5.58546 Y-48.89500
G1 Z-3.00000 F300.00000
G0 Z1.00000


G00 Z25.00000 ( Retract )
T4
M5      ( Spindle stop.                )
M6      ( Tool change.                 )
(MSG, CHANGE TOOL BIT: to drill size 1.00000 mm)
M0      ( Temporary machine stop.      )
M3      ( Spindle on clockwise.        )

G0 X94.99346 Y-23.70200
G1 Z-3.00000 F300.00000
G0 Z1.00000
G0 X94.99346 Y-28.70200
G1 Z-3.00000 F300.00000
G0 Z1.00000
G0 X94.99346 Y-33.70200
G1 Z-3.00000 F300.00000
G0 Z1.00000
G0 X94.72346 Y-47.79200
G1 Z-3.00000 F300.00000
G0 Z1.00000
G0 X94.72346 Y-52.79200
G1 Z-3.00000 F300.00000
G0 Z1.00000
G0 X91.94546 Y-6.35000
G1 Z-3.00000 F300.00000
G0 Z1.00000
G0 X91.94546 Y-62.23000
G1 Z-3.00000 F300.00000
G0 Z1.00000
G0 X85.48346 Y-22.70200
G1 Z-3.00000 F300.00000
G0 Z1.00000
G0 X85.48346 Y-34.70200
G1 Z-3.00000 F300.00000
G0 Z1.00000
G0 X73.48346 Y-22.70200
G1 Z-3.00000 F300.00000
G0 Z1.00000
G0 X73.48346 Y-34.70200
G1 Z-3.00000 F300.00000
G0 Z1.00000
G0 X71.48346 Y-28.70200
G1 Z-3.00000 F300.00000
G0 Z1.00000
G0 X70.86346 Y-46.48200
G1 Z-3.00000 F300.00000
G0 Z1.00000
G0 X69.59346 Y-4.06400
G1 Z-3.00000 F300.00000
G0 Z1.00000
G0 X68.32346 Y-46.48200
G1 Z-3.00000 F300.00000
G0 Z1.00000
G0 X67.05346 Y-4.06400
G1 Z-3.00000 F300.00000
G0 Z1.00000
G0 X67.05346 Y-22.35200
G1 Z-3.00000 F300.00000
G0 Z1.00000
G0 X65.78346 Y-46.48200
G1 Z-3.00000 F300.00000
G0 Z1.00000
G0 X64.51346 Y-4.06400
G1 Z-3.00000 F300.00000
G0 Z1.00000
G0 X61.97346 Y-4.06400
G1 Z-3.00000 F300.00000
G0 Z1.00000
G0 X55.36946 Y-4.06400
G1 Z-3.00000 F300.00000
G0 Z1.00000
G0 X52.82946 Y-4.06400
G1 Z-3.00000 F300.00000
G0 Z1.00000
G0 X50.28946 Y-4.06400
G1 Z-3.00000 F300.00000
G0 Z1.00000
G0 X47.74946 Y-4.06400
G1 Z-3.00000 F300.00000
G0 Z1.00000
G0 X42.16146 Y-4.06400
G1 Z-3.00000 F300.00000
G0 Z1.00000
G0 X42.16146 Y-9.14400
G1 Z-3.00000 F300.00000
G0 Z1.00000
G0 X34.54146 Y-4.06400
G1 Z-3.00000 F300.00000
G0 Z1.00000
G0 X34.54146 Y-9.14400
G1 Z-3.00000 F300.00000
G0 Z1.00000
G0 X25.90546 Y-62.23000
G1 Z-3.00000 F300.00000
G0 Z1.00000
G0 X18.28546 Y-63.50000
G1 Z-3.00000 F300.00000
G0 Z1.00000
G0 X15.74546 Y-63.50000
G1 Z-3.00000 F300.00000
G0 Z1.00000
G0 X13.20546 Y-63.50000
G1 Z-3.00000 F300.00000
G0 Z1.00000
G0 X5.58546 Y-6.35000
G1 Z-3.00000 F300.00000
G0 Z1.00000


G00 Z25.00000 ( Retract )
T5
M5      ( Spindle stop.                )
M6      ( Tool change.                 )
(MSG, CHANGE TOOL BIT: to drill size 1.01600 mm)
M0      ( Temporary machine stop.      )
M3      ( Spindle on clockwise.        )

G0 X83.56346 Y-45.21200
G1 Z-3.00000 F300.00000
G0 Z1.00000
G0 X78.48346 Y-45.21200
G1 Z-3.00000 F300.00000
G0 Z1.00000
G0 X52.57546 Y-46.73600
G1 Z-3.00000 F300.00000
G0 Z1.00000
G0 X52.57546 Y-51.81600
G1 Z-3.00000 F300.00000
G0 Z1.00000
G0 X41.14546 Y-63.50000
G1 Z-3.00000 F300.00000
G0 Z1.00000
G0 X38.60546 Y-63.50000
G1 Z-3.00000 F300.00000
G0 Z1.00000


G00 Z25.00000 ( Retract )
T6
M5      ( Spindle stop.                )
M6      ( Tool change.                 )
(MSG, CHANGE TOOL BIT: to drill size 1.14300 mm)
M0      ( Temporary machine stop.      )
M3      ( Spindle on clockwise.        )

G0 X77.21346 Y-52.83200
G1 Z-3.00000 F300.00000
G0 Z1.00000
G0 X67.05346 Y-35.05200
G1 Z-3.00000 F300.00000
G0 Z1.00000
G0 X64.51346 Y-52.83200
G1 Z-3.00000 F300.00000
G0 Z1.00000
G0 X31.49346 Y-9.39800
G1 Z-3.00000 F300.00000
G0 Z1.00000
G0 X18.79346 Y-9.39800
G1 Z-3.00000 F300.00000
G0 Z1.00000


G00 Z25.00000 ( All done -- retract )

M9 ( Coolant off. )
M2 ( Program end. )

